( Generated by Carbide Copper )
( Material Size )
( X= 76.000, Y= 50.000, Z= 1.200 )
()
G17
G21
G54
G90
M05
(  )
T502 M06
( Contour )
M03 S10000
G0  X0.834 Y50.124
G0  Z3.000
G01 F400 Z0
G01 F400 Z-0.2
G01F400X0.797 Y50.117
X0.763 Y50.102
X0.733 Y50.080
X0.709 Y50.052
X0.690 Y50.020
X0.679 Y49.985
X0.675 Y49.951
X0.675 Y5.020
X0.679 Y4.985
X0.690 Y4.950
X0.709 Y4.918
X0.733 Y4.891
X0.763 Y4.869
X0.797 Y4.854
X0.834 Y4.846
X0.871 Y4.846
X0.907 Y4.854
X0.941 Y4.869
X0.971 Y4.891
X0.994 Y4.917
X1.064 Y5.022
X1.329 Y5.286
X1.641 Y5.494
X1.987 Y5.638
X2.353 Y5.711
X2.727 Y5.711
X3.094 Y5.638
X3.439 Y5.495
X3.751 Y5.287
X4.016 Y5.021
X4.224 Y4.710
X4.367 Y4.364
X4.440 Y3.997
X4.440 Y3.623
X4.367 Y3.256
X4.224 Y2.910
X4.016 Y2.599
X3.751 Y2.334
X3.439 Y2.126
X3.093 Y1.982
X2.727 Y1.909
X2.353 Y1.909
X1.987 Y1.982
X1.641 Y2.126
X1.329 Y2.334
X1.064 Y2.599
X0.994 Y2.703
X0.971 Y2.730
X0.941 Y2.751
X0.907 Y2.766
X0.871 Y2.774
X0.834 Y2.774
X0.797 Y2.766
X0.763 Y2.751
X0.733 Y2.730
X0.709 Y2.702
X0.690 Y2.670
X0.679 Y2.635
X0.675 Y2.600
X0.675 Y0.849
X0.679 Y0.815
X0.690 Y0.780
X0.709 Y0.748
X0.733 Y0.720
X0.763 Y0.699
X0.797 Y0.683
X0.834 Y0.676
X5.503 Y0.676
X5.539 Y0.683
X5.573 Y0.699
X5.603 Y0.720
X5.628 Y0.748
X5.646 Y0.780
X5.658 Y0.815
X5.661 Y0.849
X5.661 Y5.426
X12.119 Y5.426
X12.119 Y0.849
X12.122 Y0.815
X12.134 Y0.780
X12.152 Y0.748
X12.177 Y0.720
X12.207 Y0.699
X12.241 Y0.683
X12.277 Y0.676
X18.902 Y0.676
X18.938 Y0.683
X18.972 Y0.699
X19.002 Y0.720
X19.026 Y0.748
X19.045 Y0.780
X19.056 Y0.815
X19.060 Y0.849
X19.060 Y5.426
X26.660 Y5.426
X26.660 Y0.849
X26.664 Y0.815
X26.675 Y0.780
X26.694 Y0.748
X26.718 Y0.720
X26.748 Y0.699
X26.782 Y0.683
X26.819 Y0.676
X35.412 Y0.676
X35.448 Y0.683
X35.482 Y0.699
X35.512 Y0.720
X35.536 Y0.748
X35.555 Y0.780
X35.566 Y0.815
X35.570 Y0.849
X35.570 Y6.696
X43.170 Y6.696
X43.170 Y0.849
X43.174 Y0.815
X43.185 Y0.780
X43.204 Y0.748
X43.228 Y0.720
X43.258 Y0.699
X43.292 Y0.683
X43.329 Y0.676
X50.652 Y0.676
X50.688 Y0.683
X50.722 Y0.699
X50.752 Y0.720
X50.776 Y0.748
X50.795 Y0.780
X50.806 Y0.815
X50.810 Y0.849
X50.810 Y6.696
X58.410 Y6.696
X58.410 Y0.849
X58.414 Y0.815
X58.425 Y0.780
X58.444 Y0.748
X58.468 Y0.720
X58.498 Y0.699
X58.532 Y0.683
X58.569 Y0.676
X75.367 Y0.676
X75.403 Y0.683
X75.437 Y0.699
X75.467 Y0.720
X75.491 Y0.748
X75.510 Y0.780
X75.521 Y0.815
X75.525 Y0.849
X75.525 Y47.050
X75.521 Y47.085
X75.510 Y47.120
X75.491 Y47.152
X75.467 Y47.180
X75.437 Y47.201
X75.403 Y47.216
X75.367 Y47.224
X75.330 Y47.224
X75.293 Y47.216
X75.259 Y47.201
X75.229 Y47.180
X75.206 Y47.153
X75.136 Y47.049
X74.871 Y46.784
X74.559 Y46.576
X74.214 Y46.432
X73.847 Y46.359
X73.474 Y46.359
X73.106 Y46.432
X72.761 Y46.576
X72.449 Y46.784
X72.184 Y47.049
X71.976 Y47.360
X71.860 Y47.641
X71.833 Y47.706
X71.760 Y48.073
X71.760 Y48.447
X71.833 Y48.814
X71.976 Y49.160
X72.184 Y49.472
X72.449 Y49.736
X72.540 Y49.797
X72.566 Y49.816
X72.591 Y49.844
X72.610 Y49.876
X72.621 Y49.911
X72.625 Y49.948
X72.621 Y49.985
X72.610 Y50.020
X72.591 Y50.052
X72.566 Y50.080
X72.536 Y50.102
X72.503 Y50.117
X72.466 Y50.124
X0.834 Y50.124
G0 Z3.000
G0  X1.029 Y49.772
G0  Z3.000
G01 F400 Z0
G01 F400 Z-0.2
G01F400X71.984 Y49.772
X71.925 Y49.713
X71.904 Y49.689
X71.674 Y49.345
X71.658 Y49.318
X71.500 Y48.935
X71.490 Y48.905
X71.409 Y48.498
X71.406 Y48.467
X71.406 Y48.053
X71.409 Y48.021
X71.490 Y47.615
X71.500 Y47.585
X71.658 Y47.202
X71.674 Y47.175
X71.904 Y46.831
X71.925 Y46.807
X72.218 Y46.514
X72.244 Y46.496
X72.588 Y46.266
X72.617 Y46.253
X73.000 Y46.094
X73.031 Y46.088
X73.437 Y46.007
X73.883 Y46.007
X74.289 Y46.088
X74.320 Y46.094
X74.703 Y46.253
X74.732 Y46.266
X75.076 Y46.496
X75.102 Y46.514
X75.171 Y46.584
X75.171 Y45.591
X71.846 Y45.591
X71.827 Y45.778
X71.824 Y45.809
X71.718 Y46.159
X71.708 Y46.189
X71.536 Y46.511
X71.520 Y46.538
X71.347 Y46.750
X71.289 Y46.820
X71.268 Y46.844
X71.197 Y46.902
X69.761 Y48.338
X69.714 Y48.395
X69.693 Y48.419
X69.475 Y48.598
X69.410 Y48.650
X69.385 Y48.669
X69.062 Y48.842
X69.019 Y48.858
X68.685 Y48.960
X68.654 Y48.966
X68.383 Y48.993
X68.291 Y49.002
X68.259 Y49.002
X68.169 Y48.993
X58.526 Y48.993
X58.436 Y49.002
X58.404 Y49.002
X58.312 Y48.993
X58.041 Y48.966
X58.010 Y48.960
X57.661 Y48.854
X57.632 Y48.841
X57.310 Y48.669
X57.285 Y48.650
X57.002 Y48.419
X56.981 Y48.395
X56.934 Y48.338
X55.803 Y47.207
X55.732 Y47.149
X55.711 Y47.125
X55.653 Y47.055
X55.480 Y46.843
X55.464 Y46.816
X55.338 Y46.581
X55.292 Y46.494
X55.282 Y46.464
X55.176 Y46.114
X55.173 Y46.083
X55.153 Y45.887
X55.146 Y45.815
X55.137 Y45.720
X55.146 Y45.628
X55.146 Y42.689
X55.085 Y42.733
X54.904 Y42.814
X54.709 Y42.855
X54.511 Y42.855
X54.316 Y42.814
X54.135 Y42.733
X54.074 Y42.689
X54.074 Y45.627
X54.083 Y45.720
X54.047 Y46.083
X54.044 Y46.114
X54.034 Y46.149
X53.979 Y46.328
X53.938 Y46.464
X53.928 Y46.494
X53.756 Y46.816
X53.740 Y46.843
X53.567 Y47.055
X53.509 Y47.125
X53.488 Y47.149
X53.417 Y47.207
X52.286 Y48.338
X52.239 Y48.395
X52.218 Y48.419
X52.000 Y48.598
X51.936 Y48.650
X51.910 Y48.669
X51.587 Y48.842
X51.544 Y48.858
X51.210 Y48.960
X51.179 Y48.966
X50.908 Y48.993
X50.816 Y49.002
X50.784 Y49.002
X50.694 Y48.993
X41.656 Y48.993
X41.566 Y49.002
X41.534 Y49.002
X41.442 Y48.993
X41.171 Y48.966
X41.140 Y48.960
X40.791 Y48.854
X40.762 Y48.841
X40.440 Y48.669
X40.415 Y48.650
X40.132 Y48.419
X40.111 Y48.395
X40.064 Y48.338
X38.023 Y46.297
X37.952 Y46.239
X37.931 Y46.215
X37.700 Y45.933
X37.684 Y45.906
X37.512 Y45.584
X37.502 Y45.554
X37.396 Y45.205
X37.393 Y45.173
X37.375 Y44.997
X37.358 Y44.804
X37.366 Y44.718
X37.366 Y42.689
X37.305 Y42.733
X37.124 Y42.814
X36.929 Y42.855
X36.731 Y42.855
X36.536 Y42.814
X36.355 Y42.733
X36.294 Y42.689
X36.294 Y45.627
X36.303 Y45.720
X36.267 Y46.083
X36.264 Y46.114
X36.254 Y46.149
X36.199 Y46.328
X36.158 Y46.464
X36.148 Y46.494
X35.976 Y46.816
X35.960 Y46.843
X35.787 Y47.055
X35.729 Y47.125
X35.708 Y47.149
X35.637 Y47.207
X34.506 Y48.338
X34.459 Y48.395
X34.438 Y48.419
X34.220 Y48.598
X34.156 Y48.650
X34.130 Y48.669
X33.807 Y48.842
X33.764 Y48.858
X33.430 Y48.960
X33.399 Y48.966
X33.128 Y48.993
X33.036 Y49.002
X33.004 Y49.002
X32.914 Y48.993
X17.526 Y48.993
X17.436 Y49.002
X17.404 Y49.002
X17.312 Y48.993
X17.041 Y48.966
X17.010 Y48.960
X16.661 Y48.854
X16.632 Y48.841
X16.310 Y48.669
X16.285 Y48.650
X16.002 Y48.419
X15.981 Y48.395
X15.934 Y48.338
X15.488 Y47.891
X14.967 Y47.371
X6.032 Y47.371
X5.980 Y47.635
X5.970 Y47.665
X5.812 Y48.048
X5.796 Y48.075
X5.566 Y48.419
X5.545 Y48.443
X5.252 Y48.736
X5.226 Y48.754
X4.882 Y48.985
X4.853 Y48.997
X4.470 Y49.156
X4.439 Y49.163
X4.033 Y49.243
X4.001 Y49.243
X3.586 Y49.243
X3.181 Y49.163
X3.150 Y49.156
X2.767 Y48.997
X2.738 Y48.985
X2.394 Y48.754
X2.368 Y48.736
X2.075 Y48.443
X2.054 Y48.419
X1.824 Y48.075
X1.808 Y48.048
X1.650 Y47.665
X1.640 Y47.635
X1.559 Y47.229
X1.556 Y47.197
X1.556 Y46.783
X1.559 Y46.751
X1.640 Y46.345
X1.650 Y46.315
X1.808 Y45.932
X1.824 Y45.905
X2.054 Y45.561
X2.075 Y45.537
X2.368 Y45.244
X2.394 Y45.226
X2.738 Y44.995
X2.767 Y44.983
X3.150 Y44.824
X3.181 Y44.818
X3.587 Y44.737
X4.033 Y44.737
X4.439 Y44.818
X4.470 Y44.824
X4.853 Y44.983
X4.882 Y44.995
X5.226 Y45.226
X5.252 Y45.244
X5.545 Y45.537
X5.566 Y45.561
X5.796 Y45.905
X5.812 Y45.932
X5.970 Y46.315
X5.980 Y46.345
X6.061 Y46.752
X6.064 Y46.783
X6.064 Y47.018
X14.615 Y47.018
X13.893 Y46.297
X13.822 Y46.239
X13.801 Y46.215
X13.570 Y45.933
X13.554 Y45.906
X13.382 Y45.584
X13.372 Y45.554
X13.266 Y45.205
X13.263 Y45.173
X13.245 Y44.998
X13.227 Y44.810
X13.236 Y44.718
X13.236 Y42.689
X13.175 Y42.733
X12.994 Y42.814
X12.799 Y42.855
X12.601 Y42.855
X12.406 Y42.814
X12.225 Y42.733
X12.064 Y42.616
X12.046 Y42.596
X12.043 Y42.605
X12.028 Y42.654
X12.018 Y42.684
X11.846 Y43.006
X11.830 Y43.033
X11.599 Y43.315
X11.578 Y43.339
X11.296 Y43.570
X11.270 Y43.589
X10.948 Y43.761
X10.919 Y43.774
X10.570 Y43.880
X10.539 Y43.886
X10.176 Y43.922
X10.144 Y43.922
X9.781 Y43.886
X9.750 Y43.880
X9.401 Y43.774
X9.372 Y43.761
X9.050 Y43.589
X9.024 Y43.570
X8.813 Y43.397
X3.733 Y38.317
X3.662 Y38.259
X3.641 Y38.235
X3.410 Y37.953
X3.394 Y37.926
X3.222 Y37.604
X3.212 Y37.574
X3.106 Y37.224
X3.103 Y37.193
X3.092 Y37.085
X3.067 Y36.830
X3.076 Y36.738
X3.076 Y22.953
X3.067 Y22.860
X3.076 Y22.765
X3.103 Y22.497
X3.106 Y22.466
X3.212 Y22.116
X3.222 Y22.086
X3.394 Y21.764
X3.409 Y21.737
X3.641 Y21.455
X3.662 Y21.431
X3.733 Y21.373
X5.721 Y19.385
X5.721 Y16.805
X5.725 Y16.771
X5.736 Y16.736
X5.755 Y16.704
X5.780 Y16.676
X5.810 Y16.655
X5.844 Y16.639
X5.880 Y16.632
X8.156 Y16.632
X8.156 Y16.128
X5.875 Y16.128
X5.838 Y16.121
X5.804 Y16.105
X5.774 Y16.084
X5.750 Y16.056
X5.731 Y16.024
X5.720 Y15.989
X5.716 Y15.955
X5.716 Y11.745
X5.720 Y11.711
X5.731 Y11.676
X5.750 Y11.644
X5.774 Y11.616
X5.804 Y11.595
X5.838 Y11.579
X5.875 Y11.572
X8.156 Y11.572
X8.156 Y10.240
X8.023 Y10.337
X7.869 Y10.406
X7.704 Y10.441
X7.536 Y10.441
X7.371 Y10.406
X7.217 Y10.337
X7.081 Y10.238
X6.969 Y10.113
X6.884 Y9.968
X6.832 Y9.807
X6.815 Y9.643
X6.815 Y8.137
X6.832 Y7.973
X6.884 Y7.813
X6.969 Y7.667
X7.081 Y7.542
X7.217 Y7.443
X7.371 Y7.374
X7.536 Y7.339
X7.704 Y7.339
X7.869 Y7.374
X8.023 Y7.443
X8.159 Y7.542
X8.271 Y7.667
X8.356 Y7.813
X8.397 Y7.939
X8.417 Y7.901
X8.424 Y7.825
X8.427 Y7.794
X8.519 Y7.490
X8.529 Y7.460
X8.678 Y7.181
X8.694 Y7.154
X8.895 Y6.909
X8.916 Y6.885
X9.161 Y6.684
X9.187 Y6.666
X9.466 Y6.516
X9.495 Y6.504
X9.798 Y6.412
X9.829 Y6.405
X10.144 Y6.374
X10.176 Y6.374
X10.491 Y6.405
X10.522 Y6.412
X10.825 Y6.504
X10.854 Y6.516
X11.133 Y6.666
X11.159 Y6.684
X11.404 Y6.885
X11.425 Y6.909
X11.626 Y7.154
X11.642 Y7.181
X11.791 Y7.460
X11.801 Y7.490
X11.893 Y7.794
X11.896 Y7.825
X11.903 Y7.901
X12.018 Y8.116
X12.028 Y8.146
X12.134 Y8.495
X12.137 Y8.527
X12.164 Y8.798
X12.164 Y16.632
X22.126 Y16.632
X22.126 Y16.128
X19.845 Y16.128
X19.808 Y16.121
X19.774 Y16.105
X19.744 Y16.084
X19.720 Y16.056
X19.701 Y16.024
X19.690 Y15.989
X19.686 Y15.955
X19.686 Y11.745
X19.690 Y11.711
X19.701 Y11.676
X19.720 Y11.644
X19.744 Y11.616
X19.774 Y11.595
X19.808 Y11.579
X19.845 Y11.572
X22.126 Y11.572
X22.126 Y10.285
X21.993 Y10.382
X21.839 Y10.451
X21.674 Y10.486
X21.506 Y10.486
X21.341 Y10.451
X21.187 Y10.382
X21.051 Y10.283
X20.939 Y10.158
X20.854 Y10.013
X20.802 Y9.852
X20.785 Y9.688
X20.785 Y8.182
X20.802 Y8.018
X20.854 Y7.858
X20.939 Y7.712
X21.051 Y7.587
X21.187 Y7.488
X21.341 Y7.419
X21.506 Y7.384
X21.674 Y7.384
X21.839 Y7.419
X21.993 Y7.488
X22.129 Y7.587
X22.242 Y7.712
X22.326 Y7.858
X22.367 Y7.984
X22.387 Y7.946
X22.394 Y7.870
X22.397 Y7.839
X22.489 Y7.535
X22.499 Y7.505
X22.649 Y7.226
X22.664 Y7.199
X22.865 Y6.954
X22.886 Y6.930
X23.131 Y6.729
X23.157 Y6.711
X23.436 Y6.561
X23.465 Y6.549
X23.768 Y6.457
X23.799 Y6.450
X24.114 Y6.419
X24.146 Y6.419
X24.461 Y6.450
X24.492 Y6.457
X24.795 Y6.549
X24.824 Y6.561
X25.103 Y6.711
X25.129 Y6.729
X25.374 Y6.930
X25.395 Y6.954
X25.596 Y7.199
X25.611 Y7.226
X25.761 Y7.505
X25.771 Y7.535
X25.863 Y7.839
X25.866 Y7.870
X25.873 Y7.946
X25.988 Y8.161
X25.998 Y8.191
X26.104 Y8.540
X26.107 Y8.572
X26.134 Y8.843
X26.134 Y16.632
X29.680 Y16.632
X29.716 Y16.639
X29.750 Y16.655
X29.780 Y16.676
X29.805 Y16.704
X29.824 Y16.736
X29.835 Y16.771
X29.839 Y16.805
X29.839 Y19.587
X32.286 Y19.587
X32.286 Y19.143
X32.277 Y19.050
X32.286 Y18.955
X32.313 Y18.687
X32.316 Y18.655
X32.422 Y18.306
X32.432 Y18.276
X32.453 Y18.235
X32.604 Y17.954
X32.620 Y17.927
X32.793 Y17.715
X32.851 Y17.645
X32.872 Y17.621
X32.943 Y17.563
X34.378 Y16.128
X32.544 Y16.128
X32.508 Y16.121
X32.474 Y16.105
X32.444 Y16.084
X32.420 Y16.056
X32.401 Y16.024
X32.390 Y15.989
X32.386 Y15.955
X32.386 Y11.745
X32.390 Y11.711
X32.401 Y11.676
X32.420 Y11.644
X32.444 Y11.616
X32.474 Y11.595
X32.508 Y11.579
X32.544 Y11.572
X34.826 Y11.572
X34.826 Y9.607
X34.740 Y9.670
X34.568 Y9.746
X34.384 Y9.785
X34.196 Y9.785
X34.012 Y9.746
X33.840 Y9.670
X33.688 Y9.559
X33.562 Y9.419
X33.468 Y9.256
X33.409 Y9.077
X33.390 Y8.890
X33.409 Y8.703
X33.468 Y8.524
X33.562 Y8.361
X33.688 Y8.221
X33.840 Y8.110
X34.012 Y8.034
X34.196 Y7.995
X34.384 Y7.995
X34.568 Y8.034
X34.740 Y8.110
X34.892 Y8.221
X34.928 Y8.260
X34.962 Y8.146
X34.972 Y8.116
X35.144 Y7.794
X35.160 Y7.767
X35.391 Y7.485
X35.412 Y7.461
X35.695 Y7.230
X35.720 Y7.211
X36.025 Y7.048
X35.375 Y7.048
X35.338 Y7.041
X35.304 Y7.026
X35.274 Y7.004
X35.250 Y6.976
X35.231 Y6.944
X35.220 Y6.909
X35.216 Y6.875
X35.216 Y1.028
X27.014 Y1.028
X27.014 Y5.605
X27.010 Y5.639
X26.999 Y5.674
X26.980 Y5.706
X26.956 Y5.734
X26.926 Y5.756
X26.892 Y5.771
X26.856 Y5.778
X18.864 Y5.778
X18.828 Y5.771
X18.794 Y5.756
X18.764 Y5.734
X18.740 Y5.706
X18.721 Y5.674
X18.710 Y5.639
X18.706 Y5.605
X18.706 Y1.028
X12.473 Y1.028
X12.473 Y5.605
X12.469 Y5.639
X12.458 Y5.674
X12.439 Y5.706
X12.414 Y5.734
X12.384 Y5.756
X12.350 Y5.771
X12.314 Y5.778
X5.466 Y5.778
X5.430 Y5.771
X5.396 Y5.756
X5.366 Y5.734
X5.341 Y5.706
X5.323 Y5.674
X5.311 Y5.639
X5.307 Y5.605
X5.307 Y1.028
X1.030 Y1.028
X1.038 Y2.124
X1.098 Y2.064
X1.124 Y2.046
X1.468 Y1.816
X1.497 Y1.803
X1.880 Y1.644
X1.911 Y1.638
X2.317 Y1.557
X2.763 Y1.557
X3.169 Y1.638
X3.200 Y1.644
X3.583 Y1.803
X3.612 Y1.816
X3.956 Y2.046
X3.982 Y2.064
X4.275 Y2.357
X4.296 Y2.381
X4.526 Y2.725
X4.542 Y2.752
X4.700 Y3.135
X4.710 Y3.165
X4.791 Y3.572
X4.794 Y3.603
X4.794 Y4.017
X4.791 Y4.048
X4.710 Y4.455
X4.700 Y4.485
X4.542 Y4.868
X4.526 Y4.895
X4.296 Y5.239
X4.275 Y5.263
X3.982 Y5.556
X3.956 Y5.574
X3.612 Y5.804
X3.583 Y5.817
X3.200 Y5.976
X3.169 Y5.982
X2.763 Y6.063
X2.317 Y6.063
X1.911 Y5.982
X1.880 Y5.976
X1.497 Y5.817
X1.468 Y5.804
X1.124 Y5.574
X1.098 Y5.556
X1.029 Y5.486
X1.029 Y49.772
G0 Z3.000
G0  X3.624 Y48.891
G0  Z3.000
G01 F400 Z0
G01 F400 Z-0.2
G01F400X3.997 Y48.891
X4.364 Y48.818
X4.709 Y48.675
X5.021 Y48.466
X5.286 Y48.201
X5.394 Y48.040
X5.494 Y47.890
X5.637 Y47.544
X5.710 Y47.177
X5.710 Y46.803
X5.637 Y46.436
X5.494 Y46.090
X5.286 Y45.779
X5.021 Y45.514
X4.709 Y45.306
X4.364 Y45.162
X3.997 Y45.089
X3.624 Y45.089
X3.256 Y45.162
X2.911 Y45.306
X2.599 Y45.514
X2.334 Y45.779
X2.125 Y46.092
X2.007 Y46.377
X1.983 Y46.436
X1.910 Y46.803
X1.910 Y47.177
X1.983 Y47.544
X2.126 Y47.890
X2.334 Y48.202
X2.599 Y48.466
X2.911 Y48.674
X3.256 Y48.818
X3.624 Y48.891
G0 Z3.000
G0  X17.420 Y48.648
G0  Z3.000
G01 F400 Z0
G01 F400 Z-0.2
G01F400X17.494 Y48.641
X32.946 Y48.641
X33.020 Y48.648
X33.092 Y48.641
X33.344 Y48.616
X33.654 Y48.522
X33.942 Y48.368
X33.986 Y48.332
X34.193 Y48.162
X34.235 Y48.111
X34.254 Y48.090
X35.400 Y46.944
X35.463 Y46.892
X35.504 Y46.842
X35.669 Y46.641
X35.822 Y46.354
X35.855 Y46.247
X35.909 Y46.067
X35.917 Y46.043
X35.949 Y45.720
X35.940 Y45.633
X35.940 Y42.229
X35.901 Y42.108
X35.880 Y41.910
X35.901 Y41.712
X35.940 Y41.591
X35.940 Y23.414
X35.944 Y23.380
X35.955 Y23.345
X35.974 Y23.313
X35.998 Y23.285
X36.028 Y23.264
X36.062 Y23.248
X36.099 Y23.241
X41.836 Y23.241
X41.910 Y23.248
X41.984 Y23.241
X51.996 Y23.241
X52.070 Y23.248
X52.144 Y23.241
X57.076 Y23.241
X57.150 Y23.248
X57.222 Y23.241
X57.408 Y23.223
X57.434 Y23.220
X57.474 Y23.216
X57.784 Y23.122
X58.072 Y22.968
X58.323 Y22.762
X58.529 Y22.511
X58.683 Y22.224
X58.777 Y21.913
X58.809 Y21.590
X58.800 Y21.503
X58.800 Y8.803
X58.777 Y8.567
X58.683 Y8.256
X58.669 Y8.231
X58.658 Y8.196
X58.654 Y8.162
X58.654 Y8.043
X58.641 Y7.913
X58.604 Y7.791
X58.543 Y7.677
X58.463 Y7.579
X58.364 Y7.497
X58.250 Y7.437
X58.128 Y7.400
X57.984 Y7.385
X57.862 Y7.385
X57.825 Y7.378
X57.785 Y7.358
X57.474 Y7.264
X57.150 Y7.232
X56.827 Y7.264
X56.501 Y7.366
X56.474 Y7.378
X56.438 Y7.385
X56.316 Y7.385
X56.172 Y7.400
X56.050 Y7.437
X55.937 Y7.497
X55.837 Y7.579
X55.757 Y7.677
X55.696 Y7.791
X55.659 Y7.913
X55.646 Y8.043
X55.646 Y8.162
X55.642 Y8.196
X55.631 Y8.231
X55.617 Y8.256
X55.523 Y8.567
X55.501 Y8.798
X55.510 Y8.890
X55.500 Y8.988
X55.500 Y11.751
X55.496 Y11.785
X55.485 Y11.820
X55.466 Y11.852
X55.442 Y11.880
X55.412 Y11.902
X55.378 Y11.917
X55.342 Y11.924
X53.879 Y11.924
X53.842 Y11.917
X53.808 Y11.902
X53.778 Y11.880
X53.754 Y11.852
X53.735 Y11.820
X53.724 Y11.785
X53.720 Y11.751
X53.720 Y8.988
X53.710 Y8.890
X53.719 Y8.798
X53.697 Y8.567
X53.602 Y8.256
X53.449 Y7.969
X53.243 Y7.718
X52.992 Y7.512
X52.704 Y7.358
X52.394 Y7.264
X52.070 Y7.232
X51.746 Y7.264
X51.436 Y7.358
X51.148 Y7.512
X50.897 Y7.718
X50.691 Y7.969
X50.538 Y8.256
X50.443 Y8.567
X50.421 Y8.798
X50.430 Y8.890
X50.420 Y8.988
X50.420 Y11.751
X50.416 Y11.785
X50.405 Y11.820
X50.386 Y11.852
X50.362 Y11.880
X50.332 Y11.902
X50.298 Y11.917
X50.262 Y11.924
X47.980 Y11.924
X47.980 Y15.776
X50.262 Y15.776
X50.298 Y15.783
X50.332 Y15.799
X50.362 Y15.820
X50.386 Y15.848
X50.405 Y15.880
X50.416 Y15.915
X50.420 Y15.949
X50.420 Y19.766
X50.416 Y19.800
X50.405 Y19.835
X50.386 Y19.867
X50.362 Y19.895
X50.332 Y19.916
X50.298 Y19.932
X50.262 Y19.939
X43.718 Y19.939
X43.682 Y19.932
X43.648 Y19.916
X43.618 Y19.895
X43.594 Y19.867
X43.575 Y19.835
X43.564 Y19.800
X43.560 Y19.766
X43.560 Y8.803
X43.537 Y8.567
X43.443 Y8.256
X43.429 Y8.231
X43.418 Y8.196
X43.414 Y8.162
X43.414 Y8.043
X43.401 Y7.913
X43.364 Y7.791
X43.303 Y7.677
X43.223 Y7.579
X43.124 Y7.497
X43.010 Y7.437
X42.888 Y7.400
X42.744 Y7.385
X42.622 Y7.385
X42.585 Y7.378
X42.545 Y7.358
X42.234 Y7.264
X41.910 Y7.232
X41.587 Y7.264
X41.261 Y7.366
X41.234 Y7.378
X41.198 Y7.385
X41.076 Y7.385
X40.932 Y7.400
X40.810 Y7.437
X40.697 Y7.497
X40.597 Y7.579
X40.517 Y7.677
X40.456 Y7.791
X40.419 Y7.913
X40.406 Y8.043
X40.406 Y8.162
X40.402 Y8.196
X40.391 Y8.231
X40.378 Y8.256
X40.283 Y8.567
X40.261 Y8.798
X40.270 Y8.890
X40.260 Y8.988
X40.260 Y11.751
X40.256 Y11.785
X40.245 Y11.820
X40.226 Y11.852
X40.202 Y11.880
X40.172 Y11.902
X40.138 Y11.917
X40.102 Y11.924
X38.639 Y11.924
X38.602 Y11.917
X38.568 Y11.902
X38.538 Y11.880
X38.514 Y11.852
X38.495 Y11.820
X38.484 Y11.785
X38.480 Y11.751
X38.480 Y8.988
X38.470 Y8.890
X38.479 Y8.798
X38.457 Y8.567
X38.363 Y8.256
X38.209 Y7.969
X38.003 Y7.718
X37.752 Y7.512
X37.464 Y7.358
X37.154 Y7.264
X36.830 Y7.232
X36.506 Y7.264
X36.196 Y7.358
X35.908 Y7.512
X35.657 Y7.718
X35.451 Y7.969
X35.297 Y8.256
X35.203 Y8.567
X35.181 Y8.798
X35.190 Y8.890
X35.180 Y8.988
X35.180 Y11.751
X35.176 Y11.785
X35.165 Y11.820
X35.146 Y11.852
X35.122 Y11.880
X35.092 Y11.902
X35.058 Y11.917
X35.022 Y11.924
X32.740 Y11.924
X32.740 Y15.776
X34.823 Y15.776
X34.859 Y15.783
X34.893 Y15.799
X34.923 Y15.820
X34.948 Y15.848
X34.966 Y15.880
X34.978 Y15.915
X34.982 Y15.952
X34.978 Y15.989
X34.966 Y16.024
X34.948 Y16.056
X34.925 Y16.081
X33.180 Y17.826
X33.117 Y17.878
X33.076 Y17.928
X32.911 Y18.129
X32.774 Y18.386
X32.774 Y18.386
X32.758 Y18.416
X32.663 Y18.727
X32.640 Y18.965
X32.631 Y19.050
X32.640 Y19.137
X32.640 Y19.766
X32.636 Y19.800
X32.625 Y19.835
X32.606 Y19.867
X32.582 Y19.895
X32.552 Y19.916
X32.518 Y19.932
X32.482 Y19.939
X29.643 Y19.939
X29.607 Y19.932
X29.573 Y19.916
X29.543 Y19.895
X29.518 Y19.867
X29.500 Y19.835
X29.488 Y19.800
X29.485 Y19.766
X29.485 Y16.984
X25.939 Y16.984
X25.902 Y16.977
X25.868 Y16.962
X25.838 Y16.940
X25.814 Y16.912
X25.795 Y16.880
X25.784 Y16.845
X25.780 Y16.811
X25.780 Y8.848
X25.757 Y8.612
X25.663 Y8.301
X25.539 Y8.070
X25.528 Y8.036
X25.525 Y8.004
X25.515 Y7.910
X25.435 Y7.646
X25.304 Y7.401
X25.129 Y7.187
X24.915 Y7.012
X24.671 Y6.881
X24.405 Y6.800
X24.130 Y6.773
X23.854 Y6.801
X23.590 Y6.881
X23.345 Y7.011
X23.131 Y7.187
X22.956 Y7.401
X22.825 Y7.646
X22.745 Y7.910
X22.735 Y8.004
X22.732 Y8.036
X22.721 Y8.070
X22.598 Y8.301
X22.503 Y8.612
X22.480 Y8.848
X22.480 Y11.751
X22.476 Y11.785
X22.465 Y11.820
X22.446 Y11.852
X22.422 Y11.880
X22.392 Y11.902
X22.358 Y11.917
X22.322 Y11.924
X20.040 Y11.924
X20.040 Y15.776
X22.322 Y15.776
X22.358 Y15.783
X22.392 Y15.799
X22.422 Y15.820
X22.446 Y15.848
X22.465 Y15.880
X22.476 Y15.915
X22.480 Y15.949
X22.480 Y16.811
X22.476 Y16.845
X22.465 Y16.880
X22.446 Y16.912
X22.422 Y16.940
X22.392 Y16.962
X22.358 Y16.977
X22.322 Y16.984
X11.969 Y16.984
X11.932 Y16.977
X11.898 Y16.962
X11.868 Y16.940
X11.844 Y16.912
X11.825 Y16.880
X11.814 Y16.845
X11.810 Y16.811
X11.810 Y8.803
X11.787 Y8.567
X11.693 Y8.256
X11.569 Y8.025
X11.558 Y7.991
X11.555 Y7.959
X11.545 Y7.865
X11.465 Y7.601
X11.334 Y7.356
X11.159 Y7.142
X10.945 Y6.966
X10.701 Y6.836
X10.638 Y6.817
X10.436 Y6.755
X10.160 Y6.728
X9.884 Y6.756
X9.620 Y6.836
X9.375 Y6.966
X9.161 Y7.142
X8.986 Y7.356
X8.855 Y7.601
X8.775 Y7.865
X8.765 Y7.959
X8.762 Y7.991
X8.751 Y8.025
X8.628 Y8.256
X8.533 Y8.567
X8.510 Y8.803
X8.510 Y11.751
X8.506 Y11.785
X8.495 Y11.820
X8.476 Y11.852
X8.452 Y11.880
X8.422 Y11.902
X8.388 Y11.917
X8.351 Y11.924
X6.070 Y11.924
X6.070 Y15.776
X8.351 Y15.776
X8.388 Y15.783
X8.422 Y15.799
X8.452 Y15.820
X8.476 Y15.848
X8.495 Y15.880
X8.506 Y15.915
X8.510 Y15.949
X8.510 Y16.811
X8.506 Y16.845
X8.495 Y16.880
X8.476 Y16.912
X8.452 Y16.940
X8.422 Y16.962
X8.388 Y16.977
X8.351 Y16.984
X6.075 Y16.984
X6.075 Y19.461
X6.072 Y19.495
X6.060 Y19.530
X6.042 Y19.562
X6.019 Y19.587
X3.970 Y21.636
X3.907 Y21.688
X3.701 Y21.939
X3.548 Y22.226
X3.453 Y22.537
X3.430 Y22.775
X3.421 Y22.860
X3.430 Y22.947
X3.430 Y36.743
X3.421 Y36.830
X3.446 Y37.075
X3.453 Y37.153
X3.548 Y37.464
X3.701 Y37.751
X3.907 Y38.002
X3.970 Y38.054
X9.051 Y43.135
X9.238 Y43.288
X9.526 Y43.442
X9.836 Y43.536
X10.160 Y43.568
X10.484 Y43.536
X10.794 Y43.442
X11.082 Y43.288
X11.333 Y43.082
X11.539 Y42.831
X11.693 Y42.544
X11.787 Y42.233
X11.793 Y42.175
X11.771 Y42.108
X11.750 Y41.910
X11.771 Y41.712
X11.793 Y41.645
X11.787 Y41.587
X11.693 Y41.276
X11.539 Y40.989
X11.385 Y40.802
X6.786 Y36.202
X6.764 Y36.177
X6.745 Y36.145
X6.734 Y36.110
X6.730 Y36.076
X6.730 Y34.648
X6.734 Y34.614
X6.745 Y34.579
X6.764 Y34.547
X6.788 Y34.519
X6.818 Y34.498
X6.852 Y34.482
X6.889 Y34.475
X8.404 Y34.475
X8.547 Y34.461
X8.670 Y34.423
X8.783 Y34.363
X8.883 Y34.281
X8.963 Y34.183
X9.024 Y34.069
X9.061 Y33.947
X9.074 Y33.817
X9.074 Y32.223
X9.061 Y32.093
X9.024 Y31.971
X8.963 Y31.857
X8.883 Y31.759
X8.783 Y31.677
X8.706 Y31.636
X8.670 Y31.617
X8.548 Y31.580
X8.404 Y31.565
X6.889 Y31.565
X6.852 Y31.558
X6.818 Y31.543
X6.788 Y31.521
X6.764 Y31.493
X6.745 Y31.461
X6.734 Y31.426
X6.730 Y31.392
X6.730 Y31.059
X6.734 Y31.025
X6.745 Y30.990
X6.764 Y30.958
X6.788 Y30.930
X6.818 Y30.909
X6.852 Y30.893
X6.889 Y30.886
X29.485 Y30.886
X29.485 Y23.414
X29.488 Y23.380
X29.500 Y23.345
X29.518 Y23.313
X29.543 Y23.285
X29.573 Y23.264
X29.607 Y23.248
X29.643 Y23.241
X32.482 Y23.241
X32.518 Y23.248
X32.552 Y23.264
X32.582 Y23.285
X32.606 Y23.313
X32.625 Y23.345
X32.636 Y23.380
X32.640 Y23.414
X32.640 Y31.696
X32.636 Y31.730
X32.625 Y31.765
X32.606 Y31.797
X32.582 Y31.825
X32.552 Y31.847
X32.518 Y31.862
X32.482 Y31.869
X28.089 Y31.869
X28.053 Y31.862
X28.019 Y31.847
X27.989 Y31.825
X27.967 Y31.800
X27.932 Y31.758
X27.834 Y31.677
X27.720 Y31.617
X27.598 Y31.580
X27.454 Y31.565
X25.886 Y31.565
X25.742 Y31.580
X25.620 Y31.617
X25.507 Y31.677
X25.407 Y31.759
X25.327 Y31.857
X25.266 Y31.971
X25.229 Y32.093
X25.216 Y32.223
X25.216 Y33.817
X25.229 Y33.947
X25.266 Y34.069
X25.326 Y34.183
X25.408 Y34.282
X25.507 Y34.363
X25.620 Y34.424
X25.742 Y34.461
X25.886 Y34.475
X27.454 Y34.475
X27.598 Y34.461
X27.720 Y34.424
X27.833 Y34.363
X27.932 Y34.282
X27.967 Y34.240
X27.989 Y34.215
X28.019 Y34.194
X28.053 Y34.178
X28.089 Y34.171
X32.482 Y34.171
X32.518 Y34.178
X32.552 Y34.194
X32.582 Y34.215
X32.606 Y34.243
X32.625 Y34.275
X32.636 Y34.310
X32.640 Y34.344
X32.640 Y44.966
X32.636 Y45.000
X32.625 Y45.035
X32.606 Y45.067
X32.584 Y45.092
X32.381 Y45.296
X32.352 Y45.317
X32.318 Y45.332
X32.282 Y45.339
X18.158 Y45.339
X18.122 Y45.332
X18.088 Y45.317
X18.059 Y45.296
X16.946 Y44.182
X16.924 Y44.157
X16.905 Y44.125
X16.894 Y44.090
X16.890 Y44.056
X16.890 Y41.823
X16.867 Y41.587
X16.797 Y41.359
X16.794 Y41.325
X16.794 Y41.013
X16.781 Y40.883
X16.744 Y40.761
X16.683 Y40.647
X16.602 Y40.549
X16.504 Y40.467
X16.390 Y40.407
X16.268 Y40.370
X16.124 Y40.355
X15.809 Y40.355
X15.776 Y40.348
X15.564 Y40.284
X15.240 Y40.252
X14.916 Y40.284
X14.704 Y40.348
X14.671 Y40.355
X14.356 Y40.355
X14.212 Y40.370
X14.090 Y40.407
X13.977 Y40.467
X13.877 Y40.549
X13.797 Y40.647
X13.736 Y40.761
X13.699 Y40.883
X13.686 Y41.013
X13.686 Y41.325
X13.683 Y41.359
X13.613 Y41.587
X13.607 Y41.645
X13.630 Y41.712
X13.650 Y41.910
X13.630 Y42.108
X13.590 Y42.229
X13.590 Y44.723
X13.581 Y44.810
X13.599 Y44.988
X13.613 Y45.133
X13.708 Y45.444
X13.861 Y45.731
X14.067 Y45.982
X14.130 Y46.034
X16.186 Y48.090
X16.205 Y48.111
X16.247 Y48.162
X16.499 Y48.368
X16.786 Y48.522
X17.096 Y48.616
X17.348 Y48.641
X17.420 Y48.648
G0 Z3.000
G0  X41.550 Y48.648
G0  Z3.000
G01 F400 Z0
G01 F400 Z-0.2
G01F400X41.624 Y48.641
X50.726 Y48.641
X50.800 Y48.648
X50.872 Y48.641
X51.124 Y48.616
X51.434 Y48.522
X51.722 Y48.368
X51.766 Y48.332
X51.973 Y48.162
X52.015 Y48.111
X52.034 Y48.090
X53.180 Y46.944
X53.243 Y46.892
X53.284 Y46.842
X53.449 Y46.641
X53.602 Y46.354
X53.635 Y46.247
X53.689 Y46.067
X53.697 Y46.043
X53.729 Y45.720
X53.720 Y45.633
X53.720 Y42.229
X53.681 Y42.108
X53.660 Y41.910
X53.681 Y41.712
X53.720 Y41.591
X53.720 Y38.854
X53.724 Y38.820
X53.735 Y38.785
X53.754 Y38.753
X53.776 Y38.728
X55.249 Y37.255
X55.278 Y37.233
X55.312 Y37.218
X55.348 Y37.211
X59.616 Y37.211
X59.690 Y37.218
X59.762 Y37.211
X60.014 Y37.186
X60.324 Y37.092
X60.612 Y36.938
X60.863 Y36.732
X60.905 Y36.681
X60.924 Y36.660
X64.610 Y32.974
X64.673 Y32.922
X64.879 Y32.671
X65.033 Y32.384
X65.127 Y32.073
X65.143 Y31.906
X65.159 Y31.750
X65.150 Y31.663
X65.150 Y15.994
X65.154 Y15.960
X65.165 Y15.925
X65.184 Y15.893
X65.206 Y15.868
X65.880 Y15.194
X65.943 Y15.142
X66.149 Y14.891
X66.303 Y14.604
X66.397 Y14.293
X66.404 Y14.215
X66.428 Y13.970
X66.420 Y13.883
X66.420 Y10.073
X66.397 Y9.837
X66.303 Y9.526
X66.179 Y9.295
X66.168 Y9.261
X66.165 Y9.229
X66.155 Y9.135
X66.075 Y8.870
X65.944 Y8.626
X65.769 Y8.412
X65.629 Y8.297
X65.603 Y8.275
X65.603 Y8.276
X65.571 Y8.250
X65.571 Y8.250
X65.555 Y8.236
X65.310 Y8.106
X65.046 Y8.026
X64.770 Y7.998
X64.494 Y8.026
X64.230 Y8.106
X63.985 Y8.236
X63.771 Y8.412
X63.596 Y8.626
X63.465 Y8.870
X63.385 Y9.135
X63.375 Y9.229
X63.372 Y9.261
X63.361 Y9.295
X63.238 Y9.526
X63.143 Y9.837
X63.120 Y10.073
X63.120 Y13.216
X63.116 Y13.250
X63.105 Y13.285
X63.086 Y13.317
X63.064 Y13.342
X62.390 Y14.016
X62.327 Y14.068
X62.247 Y14.166
X62.121 Y14.319
X61.968 Y14.606
X61.935 Y14.714
X61.873 Y14.917
X61.850 Y15.155
X61.841 Y15.240
X61.850 Y15.327
X61.850 Y30.996
X61.846 Y31.030
X61.835 Y31.065
X61.816 Y31.097
X61.794 Y31.122
X59.051 Y33.866
X59.022 Y33.887
X58.988 Y33.902
X58.952 Y33.909
X55.798 Y33.909
X55.762 Y33.902
X55.728 Y33.887
X55.698 Y33.865
X55.673 Y33.837
X55.652 Y33.798
X55.571 Y33.648
X55.453 Y33.504
X55.428 Y33.473
X55.384 Y33.437
X54.203 Y32.257
X54.184 Y32.235
X54.158 Y32.203
X54.116 Y32.169
X53.982 Y32.059
X53.782 Y31.952
X53.566 Y31.887
X53.387 Y31.869
X53.340 Y31.865
X53.291 Y31.869
X52.219 Y31.869
X52.183 Y31.862
X52.149 Y31.847
X52.119 Y31.825
X52.097 Y31.800
X52.062 Y31.758
X51.964 Y31.677
X51.850 Y31.616
X51.728 Y31.580
X51.584 Y31.565
X50.016 Y31.565
X49.872 Y31.580
X49.750 Y31.617
X49.637 Y31.677
X49.537 Y31.759
X49.457 Y31.857
X49.396 Y31.971
X49.359 Y32.093
X49.346 Y32.223
X49.346 Y33.817
X49.359 Y33.947
X49.396 Y34.069
X49.456 Y34.183
X49.538 Y34.282
X49.637 Y34.363
X49.750 Y34.424
X49.872 Y34.461
X50.016 Y34.475
X51.584 Y34.475
X51.727 Y34.461
X51.850 Y34.423
X51.963 Y34.363
X52.062 Y34.282
X52.097 Y34.240
X52.119 Y34.215
X52.149 Y34.194
X52.183 Y34.178
X52.219 Y34.171
X52.809 Y34.171
X52.845 Y34.178
X52.879 Y34.194
X52.908 Y34.215
X53.136 Y34.443
X53.158 Y34.467
X53.177 Y34.499
X53.188 Y34.535
X53.192 Y34.571
X53.188 Y34.608
X53.177 Y34.644
X53.158 Y34.676
X53.136 Y34.700
X50.960 Y36.876
X50.897 Y36.928
X50.856 Y36.978
X50.691 Y37.179
X50.610 Y37.331
X50.538 Y37.466
X50.443 Y37.777
X50.420 Y38.015
X50.411 Y38.100
X50.420 Y38.187
X50.420 Y44.966
X50.416 Y45.000
X50.405 Y45.035
X50.386 Y45.067
X50.364 Y45.092
X50.161 Y45.296
X50.132 Y45.317
X50.098 Y45.332
X50.062 Y45.339
X42.288 Y45.339
X42.252 Y45.332
X42.218 Y45.317
X42.189 Y45.296
X41.076 Y44.182
X41.054 Y44.157
X41.035 Y44.125
X41.024 Y44.090
X41.020 Y44.056
X41.020 Y41.823
X40.997 Y41.587
X40.928 Y41.359
X40.924 Y41.325
X40.924 Y41.013
X40.911 Y40.883
X40.874 Y40.761
X40.813 Y40.647
X40.733 Y40.549
X40.634 Y40.467
X40.520 Y40.407
X40.398 Y40.370
X40.254 Y40.355
X39.939 Y40.355
X39.906 Y40.348
X39.694 Y40.284
X39.370 Y40.252
X39.046 Y40.284
X38.834 Y40.348
X38.801 Y40.355
X38.486 Y40.355
X38.342 Y40.370
X38.220 Y40.407
X38.107 Y40.467
X38.007 Y40.549
X37.927 Y40.647
X37.866 Y40.761
X37.829 Y40.883
X37.816 Y41.013
X37.816 Y41.325
X37.813 Y41.359
X37.743 Y41.587
X37.738 Y41.645
X37.760 Y41.712
X37.780 Y41.910
X37.760 Y42.108
X37.720 Y42.229
X37.720 Y44.723
X37.711 Y44.810
X37.729 Y44.988
X37.743 Y45.133
X37.837 Y45.444
X37.991 Y45.731
X38.197 Y45.982
X38.260 Y46.034
X40.316 Y48.090
X40.335 Y48.111
X40.377 Y48.162
X40.628 Y48.368
X40.916 Y48.522
X41.226 Y48.616
X41.478 Y48.641
X41.550 Y48.648
G0 Z3.000
G0  X58.420 Y48.648
G0  Z3.000
G01 F400 Z0
G01 F400 Z-0.2
G01F400X58.494 Y48.641
X68.201 Y48.641
X68.275 Y48.648
X68.347 Y48.641
X68.599 Y48.616
X68.909 Y48.522
X69.197 Y48.368
X69.241 Y48.332
X69.448 Y48.162
X69.490 Y48.111
X69.509 Y48.090
X70.960 Y46.639
X71.023 Y46.587
X71.064 Y46.537
X71.229 Y46.336
X71.383 Y46.049
X71.477 Y45.738
X71.479 Y45.715
X71.508 Y45.415
X71.500 Y45.328
X71.500 Y41.823
X71.477 Y41.587
X71.383 Y41.276
X71.259 Y41.045
X71.248 Y41.011
X71.245 Y40.979
X71.235 Y40.885
X71.155 Y40.620
X71.015 Y40.358
X71.004 Y40.324
X71.000 Y40.289
X71.000 Y33.185
X71.004 Y33.151
X71.015 Y33.115
X71.034 Y33.083
X71.057 Y33.057
X71.113 Y33.011
X71.193 Y32.913
X71.254 Y32.799
X71.291 Y32.677
X71.301 Y32.582
X71.304 Y32.547
X71.304 Y30.953
X71.291 Y30.823
X71.254 Y30.701
X71.193 Y30.587
X71.112 Y30.488
X71.014 Y30.407
X70.900 Y30.347
X70.778 Y30.309
X70.634 Y30.295
X69.066 Y30.295
X68.922 Y30.309
X68.800 Y30.347
X68.687 Y30.407
X68.587 Y30.489
X68.507 Y30.587
X68.446 Y30.701
X68.409 Y30.823
X68.396 Y30.953
X68.396 Y32.547
X68.409 Y32.677
X68.446 Y32.799
X68.507 Y32.913
X68.587 Y33.011
X68.643 Y33.057
X68.666 Y33.083
X68.685 Y33.115
X68.696 Y33.151
X68.700 Y33.185
X68.700 Y40.289
X68.696 Y40.324
X68.685 Y40.358
X68.545 Y40.620
X68.465 Y40.885
X68.455 Y40.979
X68.452 Y41.011
X68.441 Y41.045
X68.318 Y41.276
X68.223 Y41.587
X68.200 Y41.823
X68.200 Y44.661
X68.196 Y44.695
X68.185 Y44.730
X68.166 Y44.762
X68.144 Y44.787
X67.636 Y45.296
X67.607 Y45.317
X67.573 Y45.332
X67.537 Y45.339
X59.158 Y45.339
X59.122 Y45.332
X59.088 Y45.317
X59.059 Y45.296
X58.856 Y45.092
X58.834 Y45.067
X58.815 Y45.035
X58.804 Y45.000
X58.800 Y44.966
X58.800 Y41.823
X58.777 Y41.587
X58.708 Y41.359
X58.704 Y41.325
X58.704 Y41.013
X58.691 Y40.883
X58.654 Y40.761
X58.593 Y40.647
X58.513 Y40.549
X58.414 Y40.467
X58.300 Y40.407
X58.178 Y40.370
X58.034 Y40.355
X57.719 Y40.355
X57.686 Y40.348
X57.474 Y40.284
X57.150 Y40.252
X56.826 Y40.284
X56.614 Y40.348
X56.581 Y40.355
X56.266 Y40.355
X56.122 Y40.370
X56.000 Y40.407
X55.887 Y40.467
X55.787 Y40.549
X55.707 Y40.647
X55.646 Y40.761
X55.609 Y40.883
X55.596 Y41.013
X55.596 Y41.325
X55.593 Y41.359
X55.523 Y41.587
X55.518 Y41.645
X55.540 Y41.712
X55.560 Y41.910
X55.540 Y42.108
X55.500 Y42.229
X55.500 Y45.633
X55.491 Y45.720
X55.500 Y45.805
X55.523 Y46.043
X55.617 Y46.354
X55.659 Y46.431
X55.771 Y46.641
X55.936 Y46.842
X55.977 Y46.892
X56.040 Y46.944
X57.186 Y48.090
X57.205 Y48.111
X57.247 Y48.162
X57.499 Y48.368
X57.786 Y48.522
X58.096 Y48.616
X58.348 Y48.641
X58.420 Y48.648
G0 Z3.000
G0  X17.310 Y48.035
G0  Z3.000
G01 F400 Z0
G01 F400 Z-0.2
G01F400X17.095 Y47.989
X16.895 Y47.900
X16.718 Y47.771
X14.535 Y45.588
X14.390 Y45.427
X14.280 Y45.237
X14.213 Y45.028
X14.190 Y44.813
X14.190 Y41.907
X14.213 Y41.692
X14.280 Y41.483
X14.290 Y41.466
X14.290 Y40.960
X14.806 Y40.960
X14.915 Y40.911
X15.130 Y40.866
X15.350 Y40.866
X15.565 Y40.911
X15.674 Y40.960
X16.190 Y40.960
X16.190 Y41.466
X16.200 Y41.483
X16.267 Y41.692
X16.290 Y41.907
X16.290 Y44.377
X17.858 Y45.946
X32.581 Y45.946
X33.240 Y45.287
X33.240 Y33.567
X27.520 Y33.567
X27.520 Y33.870
X25.820 Y33.870
X25.820 Y32.170
X27.520 Y32.170
X27.520 Y32.473
X33.240 Y32.473
X33.240 Y22.635
X25.290 Y22.635
X25.075 Y22.589
X24.875 Y22.500
X24.698 Y22.371
X23.425 Y21.098
X23.280 Y20.937
X23.171 Y20.747
X23.103 Y20.538
X23.080 Y20.323
X23.080 Y8.932
X23.103 Y8.717
X23.171 Y8.508
X23.280 Y8.318
X23.325 Y8.268
X23.325 Y8.182
X23.342 Y8.018
X23.394 Y7.858
X23.479 Y7.712
X23.591 Y7.587
X23.727 Y7.488
X23.881 Y7.419
X24.046 Y7.384
X24.214 Y7.384
X24.379 Y7.419
X24.533 Y7.488
X24.669 Y7.587
X24.782 Y7.712
X24.866 Y7.858
X24.918 Y8.018
X24.935 Y8.182
X24.935 Y8.268
X24.980 Y8.318
X25.090 Y8.508
X25.157 Y8.717
X25.180 Y8.932
X25.180 Y19.887
X25.839 Y20.546
X33.240 Y20.546
X33.240 Y19.047
X33.263 Y18.832
X33.331 Y18.623
X33.440 Y18.433
X33.585 Y18.272
X35.780 Y16.077
X35.780 Y8.887
X35.803 Y8.672
X35.870 Y8.463
X35.980 Y8.273
X36.127 Y8.110
X36.305 Y7.980
X36.505 Y7.891
X36.720 Y7.846
X36.940 Y7.846
X37.155 Y7.891
X37.355 Y7.980
X37.533 Y8.110
X37.680 Y8.273
X37.790 Y8.463
X37.857 Y8.672
X37.880 Y8.887
X37.880 Y16.513
X37.857 Y16.728
X37.790 Y16.937
X37.680 Y17.127
X37.535 Y17.288
X35.340 Y19.483
X35.340 Y20.546
X40.860 Y20.546
X40.860 Y8.887
X40.883 Y8.672
X40.951 Y8.463
X41.010 Y8.360
X41.010 Y7.990
X41.372 Y7.990
X41.385 Y7.980
X41.585 Y7.891
X41.800 Y7.846
X42.020 Y7.846
X42.235 Y7.891
X42.435 Y7.980
X42.448 Y7.990
X42.810 Y7.990
X42.810 Y8.360
X42.870 Y8.463
X42.937 Y8.672
X42.960 Y8.887
X42.960 Y20.546
X51.020 Y20.546
X51.020 Y8.887
X51.043 Y8.672
X51.111 Y8.463
X51.220 Y8.273
X51.367 Y8.110
X51.545 Y7.980
X51.745 Y7.891
X51.960 Y7.846
X52.180 Y7.846
X52.395 Y7.891
X52.595 Y7.980
X52.773 Y8.110
X52.920 Y8.273
X53.030 Y8.463
X53.097 Y8.672
X53.120 Y8.887
X53.120 Y20.546
X56.100 Y20.546
X56.100 Y8.887
X56.123 Y8.672
X56.191 Y8.463
X56.250 Y8.360
X56.250 Y7.990
X56.612 Y7.990
X56.625 Y7.980
X56.825 Y7.891
X57.040 Y7.846
X57.260 Y7.846
X57.475 Y7.891
X57.675 Y7.980
X57.688 Y7.990
X58.050 Y7.990
X58.050 Y8.360
X58.110 Y8.463
X58.177 Y8.672
X58.200 Y8.887
X58.200 Y21.593
X58.177 Y21.808
X58.110 Y22.017
X58.000 Y22.207
X57.853 Y22.370
X57.675 Y22.500
X57.475 Y22.589
X57.260 Y22.635
X35.340 Y22.635
X35.340 Y45.723
X35.317 Y45.938
X35.250 Y46.147
X35.140 Y46.337
X34.995 Y46.498
X33.722 Y47.771
X33.545 Y47.900
X33.345 Y47.989
X33.130 Y48.035
X17.310 Y48.035
G0 Z3.000
G0  X41.440 Y48.035
G0  Z3.000
G01 F400 Z0
G01 F400 Z-0.2
G01F400X41.225 Y47.989
X41.025 Y47.900
X40.848 Y47.771
X38.665 Y45.588
X38.520 Y45.427
X38.410 Y45.237
X38.343 Y45.028
X38.320 Y44.813
X38.320 Y41.907
X38.343 Y41.692
X38.410 Y41.483
X38.420 Y41.466
X38.420 Y40.960
X38.936 Y40.960
X39.045 Y40.911
X39.260 Y40.866
X39.480 Y40.866
X39.695 Y40.911
X39.804 Y40.960
X40.320 Y40.960
X40.320 Y41.466
X40.330 Y41.483
X40.397 Y41.692
X40.420 Y41.907
X40.420 Y44.377
X41.989 Y45.946
X50.361 Y45.946
X51.020 Y45.287
X51.020 Y38.097
X51.043 Y37.882
X51.111 Y37.673
X51.220 Y37.483
X51.365 Y37.322
X53.908 Y34.779
X54.060 Y34.669
X54.060 Y34.517
X53.111 Y33.567
X51.650 Y33.567
X51.650 Y33.870
X49.950 Y33.870
X49.950 Y32.170
X51.650 Y32.170
X51.650 Y32.473
X53.398 Y32.473
X53.510 Y32.497
X53.615 Y32.543
X53.707 Y32.610
X54.981 Y33.884
X55.055 Y33.967
X55.113 Y34.066
X55.148 Y34.176
X55.160 Y34.287
X55.160 Y34.516
X59.252 Y34.516
X62.450 Y31.317
X62.450 Y15.237
X62.473 Y15.022
X62.541 Y14.813
X62.650 Y14.623
X62.795 Y14.462
X63.720 Y13.537
X63.720 Y10.157
X63.743 Y9.942
X63.811 Y9.733
X63.920 Y9.543
X63.965 Y9.493
X63.965 Y9.407
X63.982 Y9.243
X64.034 Y9.082
X64.118 Y8.937
X64.231 Y8.812
X64.367 Y8.713
X64.521 Y8.644
X64.686 Y8.609
X64.854 Y8.609
X65.019 Y8.644
X65.173 Y8.713
X65.309 Y8.812
X65.422 Y8.937
X65.506 Y9.082
X65.558 Y9.243
X65.575 Y9.407
X65.575 Y9.493
X65.620 Y9.543
X65.730 Y9.733
X65.797 Y9.942
X65.820 Y10.157
X65.820 Y13.973
X65.797 Y14.188
X65.730 Y14.397
X65.620 Y14.587
X65.475 Y14.748
X64.550 Y15.673
X64.550 Y31.753
X64.527 Y31.968
X64.460 Y32.177
X64.350 Y32.367
X64.205 Y32.528
X60.392 Y36.341
X60.215 Y36.470
X60.015 Y36.559
X59.800 Y36.605
X55.049 Y36.605
X53.120 Y38.533
X53.120 Y45.723
X53.097 Y45.938
X53.030 Y46.147
X52.920 Y46.337
X52.775 Y46.498
X51.502 Y47.771
X51.325 Y47.900
X51.125 Y47.989
X50.910 Y48.035
X41.440 Y48.035
G0 Z3.000
G0  X58.310 Y48.035
G0  Z3.000
G01 F400 Z0
G01 F400 Z-0.2
G01F400X58.095 Y47.989
X57.895 Y47.900
X57.718 Y47.771
X56.445 Y46.498
X56.300 Y46.337
X56.191 Y46.147
X56.123 Y45.938
X56.100 Y45.723
X56.100 Y41.907
X56.123 Y41.692
X56.191 Y41.483
X56.200 Y41.466
X56.200 Y40.960
X56.716 Y40.960
X56.825 Y40.911
X57.040 Y40.866
X57.260 Y40.866
X57.475 Y40.911
X57.584 Y40.960
X58.100 Y40.960
X58.100 Y41.466
X58.110 Y41.483
X58.177 Y41.692
X58.200 Y41.907
X58.200 Y45.287
X58.859 Y45.946
X67.837 Y45.946
X68.800 Y44.982
X68.800 Y41.907
X68.823 Y41.692
X68.891 Y41.483
X69.000 Y41.293
X69.045 Y41.243
X69.045 Y41.157
X69.062 Y40.993
X69.114 Y40.833
X69.199 Y40.687
X69.300 Y40.576
X69.300 Y32.600
X69.000 Y32.600
X69.000 Y30.900
X70.700 Y30.900
X70.700 Y32.600
X70.400 Y32.600
X70.405 Y40.580
X70.502 Y40.687
X70.586 Y40.833
X70.638 Y40.993
X70.655 Y41.157
X70.655 Y41.243
X70.700 Y41.293
X70.809 Y41.483
X70.877 Y41.692
X70.900 Y41.907
X70.900 Y45.418
X70.877 Y45.633
X70.809 Y45.842
X70.700 Y46.032
X70.555 Y46.193
X68.977 Y47.771
X68.800 Y47.900
X68.600 Y47.989
X68.385 Y48.035
X58.310 Y48.035
G0 Z3.000
G0  X71.854 Y45.239
G0  Z3.000
G01 F400 Z0
G01 F400 Z-0.2
G01F400X75.171 Y45.239
X75.171 Y14.146
X66.766 Y14.146
X66.758 Y14.225
X66.747 Y14.333
X66.744 Y14.365
X66.638 Y14.714
X66.628 Y14.744
X66.456 Y15.066
X66.440 Y15.093
X66.209 Y15.375
X66.188 Y15.399
X66.117 Y15.457
X65.504 Y16.070
X65.504 Y31.657
X65.513 Y31.750
X65.497 Y31.916
X65.477 Y32.113
X65.474 Y32.145
X65.368 Y32.494
X65.358 Y32.524
X65.186 Y32.846
X65.171 Y32.873
X64.939 Y33.155
X64.918 Y33.179
X64.847 Y33.237
X61.176 Y36.908
X61.129 Y36.965
X61.108 Y36.989
X60.826 Y37.220
X60.800 Y37.239
X60.478 Y37.411
X60.449 Y37.424
X60.100 Y37.530
X60.069 Y37.536
X59.798 Y37.563
X59.706 Y37.572
X59.674 Y37.572
X59.584 Y37.563
X55.441 Y37.563
X54.074 Y38.930
X54.074 Y41.131
X54.135 Y41.087
X54.316 Y41.006
X54.511 Y40.965
X54.709 Y40.965
X54.904 Y41.006
X55.085 Y41.087
X55.242 Y41.201
X55.242 Y41.008
X55.258 Y40.843
X55.262 Y40.812
X55.310 Y40.651
X55.320 Y40.621
X55.399 Y40.472
X55.415 Y40.445
X55.522 Y40.315
X55.543 Y40.292
X55.673 Y40.185
X55.698 Y40.167
X55.847 Y40.087
X55.875 Y40.075
X56.036 Y40.026
X56.067 Y40.019
X56.234 Y40.003
X56.534 Y40.003
X56.740 Y39.940
X56.771 Y39.934
X57.134 Y39.898
X57.166 Y39.898
X57.529 Y39.934
X57.560 Y39.940
X57.766 Y40.003
X58.066 Y40.003
X58.233 Y40.019
X58.264 Y40.026
X58.425 Y40.075
X58.454 Y40.087
X58.602 Y40.167
X58.627 Y40.185
X58.757 Y40.292
X58.778 Y40.315
X58.885 Y40.445
X58.901 Y40.472
X58.980 Y40.621
X58.990 Y40.651
X59.039 Y40.812
X59.042 Y40.843
X59.058 Y41.008
X59.058 Y41.298
X59.124 Y41.516
X59.127 Y41.547
X59.154 Y41.818
X59.154 Y44.890
X59.251 Y44.987
X67.444 Y44.987
X67.846 Y44.585
X67.846 Y43.260
X67.713 Y43.357
X67.559 Y43.426
X67.394 Y43.461
X67.226 Y43.461
X67.061 Y43.426
X66.907 Y43.357
X66.771 Y43.258
X66.659 Y43.133
X66.574 Y42.988
X66.522 Y42.827
X66.505 Y42.663
X66.505 Y41.157
X66.522 Y40.993
X66.574 Y40.833
X66.659 Y40.687
X66.771 Y40.562
X66.907 Y40.463
X67.061 Y40.394
X67.226 Y40.359
X67.394 Y40.359
X67.559 Y40.394
X67.713 Y40.463
X67.849 Y40.562
X67.962 Y40.687
X68.046 Y40.833
X68.087 Y40.959
X68.107 Y40.921
X68.114 Y40.845
X68.117 Y40.814
X68.209 Y40.510
X68.219 Y40.480
X68.346 Y40.243
X68.328 Y33.251
X68.322 Y33.245
X68.215 Y33.115
X68.199 Y33.088
X68.120 Y32.939
X68.110 Y32.909
X68.062 Y32.748
X68.058 Y32.717
X68.046 Y32.592
X68.042 Y32.553
X68.042 Y32.243
X68.038 Y32.250
X67.919 Y32.382
X67.775 Y32.486
X67.613 Y32.559
X67.439 Y32.596
X67.261 Y32.596
X67.087 Y32.559
X66.925 Y32.486
X66.781 Y32.382
X66.662 Y32.250
X66.573 Y32.096
X66.518 Y31.927
X66.500 Y31.750
X66.518 Y31.573
X66.573 Y31.404
X66.662 Y31.250
X66.781 Y31.118
X66.925 Y31.014
X67.087 Y30.941
X67.261 Y30.904
X67.439 Y30.904
X67.613 Y30.941
X67.775 Y31.014
X67.919 Y31.118
X68.038 Y31.250
X68.042 Y31.257
X68.042 Y30.948
X68.058 Y30.783
X68.062 Y30.752
X68.110 Y30.591
X68.120 Y30.561
X68.199 Y30.412
X68.215 Y30.385
X68.322 Y30.255
X68.343 Y30.232
X68.473 Y30.125
X68.498 Y30.107
X68.647 Y30.027
X68.675 Y30.015
X68.836 Y29.966
X68.867 Y29.959
X69.034 Y29.943
X70.666 Y29.943
X70.833 Y29.959
X70.864 Y29.966
X71.025 Y30.015
X71.053 Y30.027
X71.202 Y30.107
X71.227 Y30.125
X71.357 Y30.232
X71.378 Y30.255
X71.485 Y30.385
X71.501 Y30.412
X71.580 Y30.561
X71.590 Y30.591
X71.639 Y30.752
X71.642 Y30.783
X71.658 Y30.948
X71.658 Y32.553
X71.642 Y32.717
X71.639 Y32.748
X71.590 Y32.909
X71.580 Y32.939
X71.501 Y33.088
X71.485 Y33.115
X71.377 Y33.246
X71.354 Y33.269
X71.354 Y40.243
X71.481 Y40.480
X71.491 Y40.510
X71.583 Y40.814
X71.586 Y40.845
X71.593 Y40.921
X71.708 Y41.136
X71.718 Y41.166
X71.824 Y41.516
X71.827 Y41.547
X71.854 Y41.818
X71.854 Y45.239
G0 Z3.000
G0  X42.381 Y44.987
G0  Z3.000
G01 F400 Z0
G01 F400 Z-0.2
G01F400X49.969 Y44.987
X50.066 Y44.890
X50.066 Y38.193
X50.057 Y38.100
X50.066 Y38.005
X50.093 Y37.737
X50.096 Y37.706
X50.202 Y37.356
X50.212 Y37.326
X50.289 Y37.181
X50.384 Y37.004
X50.400 Y36.977
X50.573 Y36.765
X50.631 Y36.695
X50.652 Y36.671
X50.723 Y36.613
X52.765 Y34.571
X52.718 Y34.525
X52.313 Y34.532
X52.307 Y34.538
X52.177 Y34.645
X52.152 Y34.663
X52.004 Y34.743
X51.975 Y34.756
X51.814 Y34.804
X51.783 Y34.811
X51.616 Y34.827
X49.984 Y34.827
X49.817 Y34.811
X49.786 Y34.804
X49.625 Y34.756
X49.596 Y34.743
X49.448 Y34.663
X49.423 Y34.645
X49.293 Y34.538
X49.272 Y34.515
X49.165 Y34.385
X49.149 Y34.358
X49.070 Y34.209
X49.060 Y34.179
X49.012 Y34.018
X49.008 Y33.987
X48.992 Y33.823
X48.992 Y33.513
X48.988 Y33.520
X48.869 Y33.652
X48.725 Y33.756
X48.563 Y33.829
X48.389 Y33.866
X48.211 Y33.866
X48.037 Y33.829
X47.875 Y33.756
X47.731 Y33.652
X47.612 Y33.520
X47.523 Y33.366
X47.468 Y33.197
X47.450 Y33.020
X47.468 Y32.843
X47.523 Y32.674
X47.612 Y32.520
X47.731 Y32.388
X47.875 Y32.284
X48.037 Y32.211
X48.211 Y32.174
X48.389 Y32.174
X48.563 Y32.211
X48.725 Y32.284
X48.869 Y32.388
X48.988 Y32.520
X48.992 Y32.527
X48.992 Y32.218
X49.008 Y32.053
X49.012 Y32.022
X49.060 Y31.861
X49.070 Y31.831
X49.149 Y31.682
X49.165 Y31.655
X49.272 Y31.525
X49.293 Y31.502
X49.423 Y31.395
X49.448 Y31.377
X49.596 Y31.297
X49.625 Y31.285
X49.786 Y31.236
X49.817 Y31.229
X49.984 Y31.213
X51.616 Y31.213
X51.783 Y31.229
X51.814 Y31.236
X51.975 Y31.285
X52.004 Y31.297
X52.152 Y31.377
X52.177 Y31.395
X52.308 Y31.502
X52.320 Y31.517
X53.259 Y31.517
X53.324 Y31.510
X53.356 Y31.510
X53.423 Y31.517
X53.621 Y31.536
X53.652 Y31.543
X53.907 Y31.620
X53.936 Y31.633
X54.171 Y31.759
X54.196 Y31.777
X54.349 Y31.902
X54.403 Y31.947
X54.424 Y31.970
X54.455 Y32.008
X55.621 Y33.174
X55.672 Y33.217
X55.694 Y33.240
X55.736 Y33.291
X55.863 Y33.446
X55.878 Y33.473
X55.923 Y33.557
X58.859 Y33.557
X61.496 Y30.920
X61.496 Y21.766
X59.146 Y21.766
X59.127 Y21.953
X59.124 Y21.985
X59.018 Y22.334
X59.008 Y22.364
X58.836 Y22.686
X58.820 Y22.713
X58.589 Y22.995
X58.568 Y23.019
X58.286 Y23.250
X58.260 Y23.269
X57.938 Y23.441
X57.909 Y23.454
X57.560 Y23.560
X57.529 Y23.566
X57.258 Y23.593
X57.166 Y23.602
X57.134 Y23.602
X57.044 Y23.593
X52.176 Y23.593
X52.086 Y23.602
X52.054 Y23.602
X51.964 Y23.593
X42.016 Y23.593
X41.926 Y23.602
X41.894 Y23.602
X41.804 Y23.593
X36.294 Y23.593
X36.294 Y41.131
X36.355 Y41.087
X36.536 Y41.006
X36.731 Y40.965
X36.929 Y40.965
X37.124 Y41.006
X37.305 Y41.087
X37.462 Y41.201
X37.462 Y41.008
X37.478 Y40.843
X37.482 Y40.812
X37.530 Y40.651
X37.540 Y40.621
X37.619 Y40.472
X37.635 Y40.445
X37.742 Y40.315
X37.763 Y40.292
X37.893 Y40.185
X37.918 Y40.167
X38.067 Y40.087
X38.095 Y40.075
X38.256 Y40.026
X38.287 Y40.019
X38.454 Y40.003
X38.754 Y40.003
X38.960 Y39.940
X38.991 Y39.934
X39.354 Y39.898
X39.386 Y39.898
X39.749 Y39.934
X39.780 Y39.940
X39.986 Y40.003
X40.286 Y40.003
X40.453 Y40.019
X40.484 Y40.026
X40.645 Y40.075
X40.674 Y40.087
X40.822 Y40.167
X40.847 Y40.185
X40.977 Y40.292
X40.998 Y40.315
X41.105 Y40.445
X41.121 Y40.472
X41.200 Y40.621
X41.210 Y40.651
X41.259 Y40.812
X41.262 Y40.843
X41.278 Y41.008
X41.278 Y41.298
X41.344 Y41.516
X41.347 Y41.547
X41.374 Y41.818
X41.374 Y43.980
X42.381 Y44.987
G0 Z3.000
G0  X18.251 Y44.987
G0  Z3.000
G01 F400 Z0
G01 F400 Z-0.2
G01F400X32.189 Y44.987
X32.286 Y44.890
X32.286 Y34.524
X28.183 Y34.532
X28.177 Y34.538
X28.047 Y34.645
X28.022 Y34.663
X27.873 Y34.743
X27.845 Y34.756
X27.684 Y34.804
X27.653 Y34.811
X27.486 Y34.827
X25.854 Y34.827
X25.687 Y34.811
X25.656 Y34.804
X25.495 Y34.756
X25.466 Y34.743
X25.318 Y34.663
X25.293 Y34.645
X25.163 Y34.538
X25.142 Y34.515
X25.035 Y34.385
X25.019 Y34.358
X24.940 Y34.209
X24.930 Y34.179
X24.882 Y34.018
X24.878 Y33.987
X24.862 Y33.823
X24.862 Y33.513
X24.858 Y33.520
X24.739 Y33.652
X24.595 Y33.756
X24.433 Y33.829
X24.259 Y33.866
X24.081 Y33.866
X23.907 Y33.829
X23.745 Y33.756
X23.601 Y33.652
X23.482 Y33.520
X23.393 Y33.366
X23.338 Y33.197
X23.320 Y33.020
X23.338 Y32.843
X23.393 Y32.674
X23.482 Y32.520
X23.601 Y32.388
X23.745 Y32.284
X23.907 Y32.211
X24.081 Y32.174
X24.259 Y32.174
X24.433 Y32.211
X24.595 Y32.284
X24.739 Y32.388
X24.858 Y32.520
X24.862 Y32.527
X24.862 Y32.218
X24.878 Y32.053
X24.882 Y32.022
X24.930 Y31.861
X24.940 Y31.831
X25.019 Y31.682
X25.035 Y31.655
X25.142 Y31.525
X25.163 Y31.502
X25.293 Y31.395
X25.318 Y31.377
X25.466 Y31.297
X25.495 Y31.285
X25.648 Y31.238
X8.642 Y31.238
X8.795 Y31.285
X8.824 Y31.297
X8.972 Y31.377
X8.997 Y31.395
X9.127 Y31.502
X9.148 Y31.525
X9.255 Y31.655
X9.271 Y31.682
X9.350 Y31.831
X9.360 Y31.861
X9.409 Y32.022
X9.412 Y32.053
X9.428 Y32.218
X9.428 Y32.527
X9.432 Y32.520
X9.551 Y32.388
X9.695 Y32.284
X9.857 Y32.211
X10.031 Y32.174
X10.209 Y32.174
X10.383 Y32.211
X10.545 Y32.284
X10.689 Y32.388
X10.808 Y32.520
X10.897 Y32.674
X10.952 Y32.843
X10.970 Y33.020
X10.952 Y33.197
X10.897 Y33.366
X10.808 Y33.520
X10.689 Y33.652
X10.545 Y33.756
X10.383 Y33.829
X10.209 Y33.866
X10.031 Y33.866
X9.857 Y33.829
X9.695 Y33.756
X9.551 Y33.652
X9.432 Y33.520
X9.428 Y33.513
X9.428 Y33.823
X9.412 Y33.987
X9.409 Y34.019
X9.360 Y34.179
X9.350 Y34.209
X9.271 Y34.358
X9.255 Y34.385
X9.148 Y34.515
X9.127 Y34.538
X8.997 Y34.645
X8.972 Y34.663
X8.824 Y34.743
X8.795 Y34.756
X8.634 Y34.804
X8.603 Y34.811
X8.436 Y34.827
X7.084 Y34.827
X7.084 Y36.000
X7.122 Y36.038
X11.637 Y40.553
X11.656 Y40.574
X11.830 Y40.787
X11.846 Y40.814
X12.018 Y41.136
X12.028 Y41.166
X12.046 Y41.224
X12.064 Y41.204
X12.225 Y41.087
X12.406 Y41.006
X12.601 Y40.965
X12.799 Y40.965
X12.994 Y41.006
X13.175 Y41.087
X13.332 Y41.201
X13.332 Y41.008
X13.348 Y40.843
X13.352 Y40.812
X13.400 Y40.651
X13.410 Y40.621
X13.489 Y40.472
X13.505 Y40.445
X13.612 Y40.315
X13.633 Y40.292
X13.763 Y40.185
X13.788 Y40.167
X13.937 Y40.087
X13.965 Y40.075
X14.126 Y40.026
X14.157 Y40.019
X14.324 Y40.003
X14.624 Y40.003
X14.830 Y39.940
X14.861 Y39.934
X15.224 Y39.898
X15.256 Y39.898
X15.619 Y39.934
X15.650 Y39.940
X15.856 Y40.003
X16.156 Y40.003
X16.323 Y40.019
X16.354 Y40.026
X16.515 Y40.075
X16.544 Y40.087
X16.692 Y40.167
X16.717 Y40.185
X16.847 Y40.292
X16.868 Y40.315
X16.975 Y40.445
X16.991 Y40.472
X17.070 Y40.621
X17.080 Y40.651
X17.129 Y40.812
X17.132 Y40.843
X17.148 Y41.008
X17.148 Y41.298
X17.214 Y41.516
X17.217 Y41.547
X17.244 Y41.818
X17.244 Y43.980
X18.251 Y44.987
G0 Z3.000
G0  X10.050 Y42.955
G0  Z3.000
G01 F400 Z0
G01 F400 Z-0.2
G01F400X9.835 Y42.909
X9.635 Y42.820
X9.458 Y42.691
X4.375 Y37.608
X4.230 Y37.447
X4.120 Y37.257
X4.053 Y37.048
X4.030 Y36.833
X4.030 Y22.857
X4.053 Y22.642
X4.120 Y22.433
X4.230 Y22.243
X4.375 Y22.082
X9.110 Y17.347
X9.110 Y8.887
X9.133 Y8.672
X9.200 Y8.463
X9.310 Y8.273
X9.355 Y8.223
X9.355 Y8.137
X9.372 Y7.973
X9.424 Y7.813
X9.508 Y7.667
X9.621 Y7.542
X9.757 Y7.443
X9.911 Y7.374
X10.076 Y7.339
X10.244 Y7.339
X10.409 Y7.374
X10.563 Y7.443
X10.699 Y7.542
X10.812 Y7.667
X10.896 Y7.813
X10.948 Y7.973
X10.965 Y8.137
X10.965 Y8.223
X11.010 Y8.273
X11.120 Y8.463
X11.187 Y8.672
X11.210 Y8.887
X11.210 Y17.783
X11.187 Y17.998
X11.120 Y18.207
X11.010 Y18.397
X10.865 Y18.558
X6.130 Y23.293
X6.130 Y32.473
X6.770 Y32.473
X6.770 Y32.170
X8.470 Y32.170
X8.470 Y33.870
X6.770 Y33.870
X6.770 Y33.567
X6.130 Y33.567
X6.130 Y36.397
X10.865 Y41.132
X11.010 Y41.293
X11.120 Y41.483
X11.187 Y41.692
X11.210 Y41.910
X11.187 Y42.128
X11.120 Y42.337
X11.010 Y42.527
X10.863 Y42.691
X10.685 Y42.820
X10.485 Y42.909
X10.270 Y42.955
X10.050 Y42.955
G0 Z3.000
G0  X28.190 Y31.517
G0  Z3.000
G01 F400 Z0
G01 F400 Z-0.2
G01F400X32.286 Y31.517
X32.286 Y23.593
X29.839 Y23.593
X29.839 Y31.065
X29.835 Y31.099
X29.824 Y31.134
X29.805 Y31.166
X29.780 Y31.194
X29.750 Y31.216
X29.716 Y31.231
X29.680 Y31.238
X27.692 Y31.238
X27.845 Y31.285
X27.873 Y31.297
X28.022 Y31.377
X28.047 Y31.395
X28.178 Y31.502
X28.190 Y31.517
G0 Z3.000
G0  X17.997 Y29.670
G0  Z3.000
G01 F400 Z0
G01 F400 Z-0.2
G01F400X17.956 Y29.661
X17.918 Y29.644
X17.885 Y29.620
X17.691 Y29.426
X17.666 Y29.398
X17.646 Y29.365
X17.549 Y29.170
X17.538 Y29.134
X17.441 Y28.748
X17.437 Y28.711
X17.437 Y28.325
X17.441 Y28.288
X17.538 Y27.902
X17.549 Y27.867
X17.646 Y27.672
X17.666 Y27.639
X17.691 Y27.610
X17.885 Y27.416
X17.917 Y27.393
X18.280 Y27.211
X18.425 Y27.066
X18.496 Y26.925
X18.580 Y26.589
X18.580 Y26.257
X18.496 Y25.921
X18.425 Y25.779
X18.316 Y25.670
X17.984 Y25.670
X17.736 Y25.835
X17.699 Y25.851
X17.658 Y25.860
X17.616 Y25.860
X17.575 Y25.851
X17.537 Y25.834
X17.503 Y25.810
X17.475 Y25.779
X17.454 Y25.742
X17.441 Y25.703
X17.437 Y25.661
X17.441 Y25.619
X17.454 Y25.579
X17.475 Y25.543
X17.503 Y25.512
X17.534 Y25.490
X17.824 Y25.297
X17.861 Y25.280
X17.902 Y25.271
X18.420 Y25.271
X18.461 Y25.280
X18.499 Y25.297
X18.532 Y25.321
X18.726 Y25.515
X18.752 Y25.543
X18.771 Y25.576
X18.868 Y25.771
X18.880 Y25.806
X18.976 Y26.193
X18.980 Y26.230
X18.980 Y26.616
X18.976 Y26.653
X18.880 Y27.039
X18.868 Y27.074
X18.771 Y27.270
X18.752 Y27.303
X18.726 Y27.331
X18.532 Y27.525
X18.500 Y27.548
X18.137 Y27.730
X17.992 Y27.875
X17.921 Y28.016
X17.837 Y28.352
X17.837 Y28.684
X17.921 Y29.020
X17.992 Y29.162
X18.102 Y29.271
X18.433 Y29.271
X18.681 Y29.106
X18.718 Y29.090
X18.759 Y29.081
X18.801 Y29.081
X18.842 Y29.090
X18.880 Y29.107
X18.914 Y29.131
X18.942 Y29.162
X18.963 Y29.199
X18.976 Y29.238
X18.980 Y29.280
X18.976 Y29.322
X18.963 Y29.362
X18.942 Y29.398
X18.914 Y29.429
X18.884 Y29.451
X18.594 Y29.644
X18.556 Y29.661
X18.515 Y29.670
X17.997 Y29.670
G0 Z3.000
G0  X25.045 Y29.670
G0  Z3.000
G01 F400 Z0
G01 F400 Z-0.2
G01F400X25.004 Y29.661
X24.966 Y29.644
X24.932 Y29.619
X24.904 Y29.588
X24.883 Y29.552
X24.870 Y29.512
X24.866 Y29.473
X24.866 Y26.039
X24.870 Y26.002
X24.966 Y25.616
X24.978 Y25.579
X24.999 Y25.543
X25.024 Y25.515
X25.219 Y25.321
X25.251 Y25.297
X25.290 Y25.280
X25.331 Y25.271
X25.372 Y25.271
X25.413 Y25.280
X25.452 Y25.297
X25.485 Y25.322
X25.514 Y25.353
X25.534 Y25.389
X25.547 Y25.429
X25.552 Y25.471
X25.547 Y25.512
X25.534 Y25.552
X25.514 Y25.588
X25.488 Y25.616
X25.341 Y25.763
X25.266 Y26.066
X25.266 Y29.473
X25.262 Y29.512
X25.249 Y29.552
X25.228 Y29.588
X25.200 Y29.619
X25.166 Y29.644
X25.128 Y29.661
X25.087 Y29.670
X25.045 Y29.670
G0 Z3.000
G0  X7.331 Y29.670
G0  Z3.000
G01 F400 Z0
G01 F400 Z-0.2
G01F400X7.290 Y29.661
X7.251 Y29.644
X7.217 Y29.619
X7.189 Y29.588
X7.169 Y29.552
X7.155 Y29.512
X7.151 Y29.473
X7.151 Y25.468
X7.155 Y25.429
X7.169 Y25.389
X7.189 Y25.353
X7.217 Y25.322
X7.251 Y25.297
X7.290 Y25.280
X7.331 Y25.271
X7.372 Y25.271
X7.413 Y25.280
X7.452 Y25.297
X7.485 Y25.322
X7.514 Y25.353
X7.534 Y25.389
X7.547 Y25.429
X7.551 Y25.468
X7.551 Y27.176
X8.134 Y27.176
X8.175 Y27.185
X8.213 Y27.202
X8.246 Y27.226
X8.441 Y27.420
X8.466 Y27.448
X8.485 Y27.481
X8.582 Y27.676
X8.594 Y27.711
X8.690 Y28.097
X8.694 Y28.135
X8.694 Y28.711
X8.690 Y28.748
X8.594 Y29.135
X8.582 Y29.170
X8.485 Y29.365
X8.466 Y29.398
X8.441 Y29.426
X8.246 Y29.620
X8.213 Y29.644
X8.175 Y29.661
X8.134 Y29.670
X7.331 Y29.670
G0 Z3.000
G0  X7.551 Y29.271
G0  Z3.000
G01 F400 Z0
G01 F400 Z-0.2
G01F400X8.030 Y29.271
X8.140 Y29.162
X8.210 Y29.020
X8.294 Y28.684
X8.294 Y28.161
X8.210 Y27.826
X8.139 Y27.684
X8.030 Y27.574
X7.551 Y27.574
X7.551 Y29.271
G0 Z3.000
G0  X23.235 Y28.336
G0  Z3.000
G01 F400 Z0
G01 F400 Z-0.2
G01F400X23.194 Y28.328
X23.156 Y28.311
X23.122 Y28.286
X23.094 Y28.255
X23.073 Y28.219
X23.060 Y28.179
X23.056 Y28.140
X23.056 Y24.135
X23.060 Y24.096
X23.073 Y24.056
X23.094 Y24.019
X23.122 Y23.988
X23.156 Y23.964
X23.194 Y23.947
X23.235 Y23.938
X23.277 Y23.938
X23.318 Y23.947
X23.356 Y23.964
X23.390 Y23.988
X23.418 Y24.019
X23.439 Y24.056
X23.452 Y24.096
X23.456 Y24.135
X23.456 Y25.271
X23.849 Y25.271
X23.890 Y25.280
X23.928 Y25.297
X23.961 Y25.321
X24.155 Y25.515
X24.180 Y25.543
X24.199 Y25.576
X24.297 Y25.771
X24.308 Y25.806
X24.405 Y26.193
X24.409 Y26.230
X24.409 Y27.378
X24.405 Y27.415
X24.308 Y27.801
X24.297 Y27.836
X24.199 Y28.031
X24.180 Y28.064
X24.155 Y28.093
X23.961 Y28.287
X23.928 Y28.311
X23.890 Y28.328
X23.849 Y28.336
X23.426 Y28.336
X23.385 Y28.328
X23.352 Y28.313
X23.318 Y28.328
X23.277 Y28.336
X23.235 Y28.336
G0 Z3.000
G0  X19.616 Y28.336
G0  Z3.000
G01 F400 Z0
G01 F400 Z-0.2
G01F400X19.575 Y28.328
X19.537 Y28.311
X19.503 Y28.286
X19.475 Y28.255
X19.454 Y28.219
X19.441 Y28.179
X19.437 Y28.140
X19.437 Y26.039
X19.441 Y26.002
X19.538 Y25.616
X19.549 Y25.579
X19.570 Y25.543
X19.596 Y25.515
X19.790 Y25.321
X19.823 Y25.297
X19.861 Y25.280
X19.902 Y25.271
X20.230 Y25.271
X20.271 Y25.280
X20.309 Y25.297
X20.341 Y25.321
X20.352 Y25.331
X20.360 Y25.322
X20.394 Y25.297
X20.432 Y25.280
X20.473 Y25.271
X20.515 Y25.271
X20.556 Y25.280
X20.594 Y25.297
X20.628 Y25.322
X20.656 Y25.353
X20.677 Y25.389
X20.690 Y25.429
X20.694 Y25.468
X20.694 Y28.140
X20.690 Y28.179
X20.677 Y28.219
X20.656 Y28.255
X20.628 Y28.286
X20.594 Y28.311
X20.556 Y28.328
X20.515 Y28.336
X20.473 Y28.336
X20.432 Y28.328
X20.394 Y28.311
X20.360 Y28.286
X20.332 Y28.255
X20.311 Y28.219
X20.298 Y28.179
X20.294 Y28.140
X20.275 Y25.859
X20.235 Y25.779
X20.125 Y25.670
X20.006 Y25.670
X19.913 Y25.763
X19.837 Y26.067
X19.837 Y28.140
X19.833 Y28.179
X19.820 Y28.219
X19.799 Y28.255
X19.771 Y28.286
X19.737 Y28.311
X19.699 Y28.328
X19.658 Y28.336
X19.616 Y28.336
G0 Z3.000
G0  X21.426 Y28.336
G0  Z3.000
G01 F400 Z0
G01 F400 Z-0.2
G01F400X21.385 Y28.328
X21.347 Y28.311
X21.313 Y28.286
X21.285 Y28.255
X21.264 Y28.219
X21.251 Y28.179
X21.247 Y28.140
X21.247 Y24.135
X21.251 Y24.096
X21.264 Y24.056
X21.285 Y24.019
X21.313 Y23.988
X21.347 Y23.964
X21.385 Y23.947
X21.426 Y23.938
X21.468 Y23.938
X21.509 Y23.947
X21.547 Y23.964
X21.581 Y23.988
X21.609 Y24.019
X21.630 Y24.056
X21.643 Y24.096
X21.647 Y24.135
X21.647 Y25.271
X22.039 Y25.271
X22.080 Y25.280
X22.118 Y25.297
X22.151 Y25.321
X22.345 Y25.515
X22.371 Y25.543
X22.390 Y25.576
X22.487 Y25.771
X22.499 Y25.806
X22.595 Y26.193
X22.599 Y26.230
X22.599 Y27.378
X22.595 Y27.415
X22.499 Y27.801
X22.487 Y27.836
X22.390 Y28.031
X22.371 Y28.064
X22.345 Y28.093
X22.151 Y28.287
X22.118 Y28.311
X22.080 Y28.328
X22.039 Y28.336
X21.616 Y28.336
X21.575 Y28.328
X21.542 Y28.313
X21.509 Y28.328
X21.468 Y28.336
X21.426 Y28.336
G0 Z3.000
G0  X25.902 Y28.336
G0  Z3.000
G01 F400 Z0
G01 F400 Z-0.2
G01F400X25.861 Y28.328
X25.823 Y28.311
X25.789 Y28.286
X25.761 Y28.255
X25.740 Y28.219
X25.727 Y28.179
X25.723 Y28.137
X25.727 Y28.099
X26.196 Y25.473
X26.018 Y24.583
X25.949 Y24.446
X25.786 Y24.283
X25.761 Y24.255
X25.740 Y24.219
X25.727 Y24.179
X25.723 Y24.137
X25.727 Y24.096
X25.740 Y24.056
X25.761 Y24.019
X25.789 Y23.988
X25.823 Y23.964
X25.861 Y23.947
X25.902 Y23.938
X25.944 Y23.938
X25.985 Y23.947
X26.023 Y23.964
X26.056 Y23.988
X26.250 Y24.182
X26.275 Y24.210
X26.294 Y24.243
X26.392 Y24.438
X26.404 Y24.474
X26.595 Y25.430
X27.072 Y28.099
X27.076 Y28.137
X27.071 Y28.179
X27.058 Y28.219
X27.037 Y28.255
X27.009 Y28.286
X26.975 Y28.311
X26.937 Y28.328
X26.896 Y28.336
X26.854 Y28.336
X26.813 Y28.328
X26.775 Y28.311
X26.741 Y28.286
X26.713 Y28.255
X26.692 Y28.219
X26.680 Y28.181
X26.399 Y26.608
X26.118 Y28.181
X26.106 Y28.219
X26.085 Y28.255
X26.057 Y28.286
X26.023 Y28.311
X25.985 Y28.328
X25.944 Y28.336
X25.902 Y28.336
G0 Z3.000
G0  X9.616 Y28.336
G0  Z3.000
G01 F400 Z0
G01 F400 Z-0.2
G01F400X9.575 Y28.328
X9.537 Y28.311
X9.504 Y28.287
X9.310 Y28.093
X9.285 Y28.064
X9.266 Y28.031
X9.168 Y27.836
X9.157 Y27.801
X9.060 Y27.415
X9.056 Y27.378
X9.056 Y26.230
X9.060 Y26.193
X9.157 Y25.806
X9.168 Y25.771
X9.266 Y25.576
X9.285 Y25.543
X9.310 Y25.515
X9.504 Y25.321
X9.537 Y25.297
X9.575 Y25.280
X9.616 Y25.271
X9.944 Y25.271
X9.985 Y25.280
X10.023 Y25.297
X10.056 Y25.321
X10.250 Y25.515
X10.275 Y25.543
X10.294 Y25.576
X10.392 Y25.771
X10.403 Y25.806
X10.500 Y26.193
X10.504 Y26.230
X10.504 Y27.378
X10.500 Y27.415
X10.403 Y27.801
X10.392 Y27.836
X10.294 Y28.031
X10.275 Y28.064
X10.250 Y28.093
X10.056 Y28.287
X10.023 Y28.311
X9.985 Y28.328
X9.944 Y28.336
X9.616 Y28.336
G0 Z3.000
G0  X10.950 Y28.336
G0  Z3.000
G01 F400 Z0
G01 F400 Z-0.2
G01F400X10.909 Y28.328
X10.870 Y28.311
X10.837 Y28.286
X10.809 Y28.255
X10.787 Y28.219
X10.775 Y28.179
X10.770 Y28.137
X10.774 Y28.100
X11.156 Y25.428
X11.168 Y25.389
X11.189 Y25.353
X11.217 Y25.322
X11.251 Y25.297
X11.290 Y25.280
X11.331 Y25.271
X11.372 Y25.271
X11.413 Y25.280
X11.452 Y25.297
X11.485 Y25.322
X11.514 Y25.353
X11.534 Y25.389
X11.547 Y25.427
X11.732 Y26.356
X11.918 Y25.427
X11.930 Y25.389
X11.951 Y25.353
X11.979 Y25.322
X12.013 Y25.297
X12.051 Y25.280
X12.092 Y25.271
X12.134 Y25.271
X12.175 Y25.280
X12.213 Y25.297
X12.247 Y25.322
X12.275 Y25.353
X12.296 Y25.389
X12.309 Y25.428
X12.691 Y28.100
X12.695 Y28.137
X12.690 Y28.179
X12.677 Y28.219
X12.656 Y28.255
X12.628 Y28.286
X12.594 Y28.311
X12.556 Y28.328
X12.515 Y28.336
X12.473 Y28.336
X12.432 Y28.328
X12.394 Y28.311
X12.360 Y28.286
X12.332 Y28.255
X12.311 Y28.219
X12.299 Y28.180
X12.081 Y26.654
X11.928 Y27.419
X11.915 Y27.457
X11.894 Y27.493
X11.866 Y27.524
X11.833 Y27.549
X11.794 Y27.566
X11.753 Y27.574
X11.711 Y27.574
X11.671 Y27.566
X11.632 Y27.549
X11.598 Y27.524
X11.570 Y27.493
X11.549 Y27.457
X11.537 Y27.419
X11.384 Y26.654
X11.166 Y28.180
X11.153 Y28.219
X11.133 Y28.255
X11.104 Y28.286
X11.071 Y28.311
X11.032 Y28.328
X10.991 Y28.336
X10.950 Y28.336
G0 Z3.000
G0  X13.426 Y28.336
G0  Z3.000
G01 F400 Z0
G01 F400 Z-0.2
G01F400X13.385 Y28.328
X13.347 Y28.311
X13.314 Y28.287
X13.120 Y28.093
X13.094 Y28.064
X13.073 Y28.028
X13.061 Y27.992
X12.965 Y27.606
X12.961 Y27.568
X12.961 Y26.039
X12.965 Y26.002
X13.061 Y25.616
X13.073 Y25.579
X13.094 Y25.543
X13.120 Y25.515
X13.314 Y25.321
X13.347 Y25.297
X13.385 Y25.280
X13.426 Y25.271
X13.849 Y25.271
X13.889 Y25.280
X13.928 Y25.297
X13.961 Y25.321
X14.155 Y25.515
X14.180 Y25.543
X14.201 Y25.579
X14.214 Y25.619
X14.218 Y25.661
X14.214 Y25.703
X14.201 Y25.742
X14.180 Y25.779
X14.152 Y25.810
X14.118 Y25.834
X14.080 Y25.851
X14.039 Y25.860
X13.997 Y25.860
X13.956 Y25.851
X13.918 Y25.834
X13.885 Y25.811
X13.744 Y25.670
X13.530 Y25.670
X13.437 Y25.763
X13.361 Y26.066
X13.361 Y26.669
X14.179 Y26.996
X14.213 Y27.011
X14.247 Y27.036
X14.275 Y27.067
X14.296 Y27.103
X14.309 Y27.143
X14.313 Y27.182
X14.313 Y27.568
X14.309 Y27.606
X14.213 Y27.992
X14.201 Y28.028
X14.180 Y28.064
X14.155 Y28.093
X13.961 Y28.287
X13.928 Y28.311
X13.889 Y28.328
X13.849 Y28.336
X13.426 Y28.336
G0 Z3.000
G0  X14.950 Y28.336
G0  Z3.000
G01 F400 Z0
G01 F400 Z-0.2
G01F400X14.909 Y28.328
X14.870 Y28.311
X14.837 Y28.286
X14.809 Y28.255
X14.788 Y28.219
X14.775 Y28.179
X14.771 Y28.140
X14.771 Y25.468
X14.775 Y25.429
X14.788 Y25.389
X14.809 Y25.353
X14.837 Y25.322
X14.870 Y25.297
X14.909 Y25.280
X14.950 Y25.271
X14.991 Y25.271
X15.032 Y25.280
X15.071 Y25.297
X15.105 Y25.322
X15.133 Y25.353
X15.153 Y25.389
X15.166 Y25.429
X15.171 Y25.468
X15.171 Y27.351
X15.254 Y27.687
X15.325 Y27.828
X15.435 Y27.938
X15.563 Y27.938
X15.604 Y27.947
X15.642 Y27.964
X15.676 Y27.988
X15.704 Y28.019
X15.725 Y28.056
X15.738 Y28.096
X15.742 Y28.137
X15.738 Y28.179
X15.725 Y28.219
X15.704 Y28.255
X15.676 Y28.286
X15.642 Y28.311
X15.604 Y28.328
X15.563 Y28.336
X15.331 Y28.336
X15.290 Y28.328
X15.251 Y28.311
X15.220 Y28.288
X15.149 Y28.227
X15.133 Y28.255
X15.105 Y28.286
X15.071 Y28.311
X15.032 Y28.328
X14.991 Y28.336
X14.950 Y28.336
G0 Z3.000
G0  X23.530 Y27.938
G0  Z3.000
G01 F400 Z0
G01 F400 Z-0.2
G01F400X23.744 Y27.938
X23.854 Y27.828
X23.925 Y27.687
X24.009 Y27.351
X24.009 Y26.257
X23.925 Y25.921
X23.854 Y25.779
X23.744 Y25.670
X23.530 Y25.670
X23.456 Y25.744
X23.456 Y27.864
X23.530 Y27.938
G0 Z3.000
G0  X21.721 Y27.938
G0  Z3.000
G01 F400 Z0
G01 F400 Z-0.2
G01F400X21.935 Y27.938
X22.044 Y27.828
X22.115 Y27.687
X22.199 Y27.351
X22.199 Y26.257
X22.115 Y25.921
X22.044 Y25.779
X21.935 Y25.670
X21.721 Y25.670
X21.647 Y25.744
X21.647 Y27.864
X21.721 Y27.938
G0 Z3.000
G0  X13.530 Y27.938
G0  Z3.000
G01 F400 Z0
G01 F400 Z-0.2
G01F400X13.744 Y27.938
X13.838 Y27.845
X13.913 Y27.542
X13.913 Y27.320
X13.361 Y27.099
X13.361 Y27.542
X13.437 Y27.845
X13.530 Y27.938
G0 Z3.000
G0  X9.721 Y27.938
G0  Z3.000
G01 F400 Z0
G01 F400 Z-0.2
G01F400X9.839 Y27.938
X9.949 Y27.829
X10.020 Y27.687
X10.104 Y27.351
X10.104 Y26.257
X10.020 Y25.921
X9.949 Y25.779
X9.840 Y25.670
X9.720 Y25.670
X9.611 Y25.779
X9.540 Y25.921
X9.456 Y26.257
X9.456 Y27.351
X9.540 Y27.687
X9.611 Y27.829
X9.721 Y27.938
G0 Z3.000
G0  X14.616 Y23.370
G0  Z3.000
G01 F400 Z0
G01 F400 Z-0.2
G01F400X14.575 Y23.361
X14.537 Y23.344
X14.504 Y23.320
X14.310 Y23.126
X14.285 Y23.098
X14.266 Y23.065
X14.168 Y22.870
X14.155 Y22.831
X14.151 Y22.790
X14.155 Y22.748
X14.168 Y22.708
X14.189 Y22.672
X14.217 Y22.641
X14.251 Y22.616
X14.290 Y22.599
X14.331 Y22.590
X14.372 Y22.590
X14.413 Y22.599
X14.452 Y22.616
X14.485 Y22.641
X14.514 Y22.672
X14.533 Y22.705
X14.611 Y22.862
X14.721 Y22.971
X15.030 Y22.971
X15.140 Y22.862
X15.210 Y22.720
X15.294 Y22.384
X15.294 Y22.043
X15.207 Y21.519
X14.073 Y19.251
X14.060 Y19.212
X14.056 Y19.171
X14.060 Y19.129
X14.073 Y19.089
X14.094 Y19.053
X14.122 Y19.022
X14.156 Y18.997
X14.194 Y18.980
X14.235 Y18.971
X15.515 Y18.971
X15.556 Y18.980
X15.594 Y18.997
X15.628 Y19.022
X15.656 Y19.053
X15.677 Y19.089
X15.690 Y19.129
X15.695 Y19.171
X15.690 Y19.212
X15.677 Y19.252
X15.656 Y19.288
X15.628 Y19.319
X15.594 Y19.344
X15.556 Y19.361
X15.515 Y19.370
X14.579 Y19.370
X15.583 Y21.376
X15.595 Y21.413
X15.691 Y21.990
X15.694 Y22.025
X15.694 Y22.411
X15.690 Y22.449
X15.594 Y22.835
X15.583 Y22.870
X15.485 Y23.065
X15.466 Y23.098
X15.441 Y23.126
X15.246 Y23.320
X15.214 Y23.344
X15.175 Y23.361
X15.134 Y23.370
X14.616 Y23.370
G0 Z3.000
G0  X16.711 Y23.370
G0  Z3.000
G01 F400 Z0
G01 F400 Z-0.2
G01F400X16.671 Y23.361
X16.632 Y23.344
X16.599 Y23.320
X16.405 Y23.126
X16.380 Y23.098
X16.361 Y23.065
X16.263 Y22.870
X16.252 Y22.835
X16.155 Y22.449
X16.060 Y21.684
X16.056 Y21.649
X16.056 Y20.692
X16.060 Y20.657
X16.155 Y19.892
X16.252 Y19.506
X16.263 Y19.471
X16.361 Y19.276
X16.380 Y19.243
X16.405 Y19.215
X16.599 Y19.021
X16.632 Y18.997
X16.671 Y18.980
X16.711 Y18.971
X16.944 Y18.971
X16.985 Y18.980
X17.023 Y18.997
X17.056 Y19.021
X17.250 Y19.215
X17.275 Y19.243
X17.294 Y19.276
X17.392 Y19.471
X17.403 Y19.506
X17.500 Y19.892
X17.595 Y20.657
X17.599 Y20.692
X17.599 Y21.649
X17.596 Y21.684
X17.500 Y22.449
X17.403 Y22.835
X17.392 Y22.870
X17.294 Y23.065
X17.275 Y23.098
X17.250 Y23.126
X17.056 Y23.320
X17.023 Y23.344
X16.985 Y23.361
X16.944 Y23.370
X16.711 Y23.370
G0 Z3.000
G0  X18.426 Y23.370
G0  Z3.000
G01 F400 Z0
G01 F400 Z-0.2
G01F400X18.385 Y23.361
X18.347 Y23.344
X18.314 Y23.320
X18.120 Y23.126
X18.094 Y23.098
X18.075 Y23.065
X17.977 Y22.870
X17.965 Y22.831
X17.961 Y22.790
X17.965 Y22.748
X17.978 Y22.708
X17.999 Y22.672
X18.027 Y22.641
X18.061 Y22.616
X18.099 Y22.599
X18.140 Y22.590
X18.182 Y22.590
X18.223 Y22.599
X18.261 Y22.616
X18.295 Y22.641
X18.323 Y22.672
X18.342 Y22.705
X18.420 Y22.862
X18.530 Y22.971
X18.839 Y22.971
X18.949 Y22.862
X19.020 Y22.720
X19.104 Y22.384
X19.104 Y22.043
X19.016 Y21.519
X17.882 Y19.251
X17.870 Y19.212
X17.865 Y19.171
X17.870 Y19.129
X17.883 Y19.089
X17.904 Y19.053
X17.932 Y19.022
X17.966 Y18.997
X18.004 Y18.980
X18.045 Y18.971
X19.325 Y18.971
X19.366 Y18.980
X19.404 Y18.997
X19.438 Y19.022
X19.466 Y19.053
X19.487 Y19.089
X19.500 Y19.129
X19.504 Y19.171
X19.500 Y19.212
X19.487 Y19.252
X19.466 Y19.288
X19.438 Y19.319
X19.404 Y19.344
X19.366 Y19.361
X19.325 Y19.370
X18.389 Y19.370
X19.392 Y21.376
X19.404 Y21.413
X19.500 Y21.990
X19.504 Y22.025
X19.504 Y22.411
X19.500 Y22.449
X19.403 Y22.835
X19.392 Y22.870
X19.294 Y23.065
X19.275 Y23.098
X19.250 Y23.126
X19.056 Y23.320
X19.023 Y23.344
X18.985 Y23.361
X18.944 Y23.370
X18.426 Y23.370
G0 Z3.000
G0  X20.521 Y23.370
G0  Z3.000
G01 F400 Z0
G01 F400 Z-0.2
G01F400X20.480 Y23.361
X20.442 Y23.344
X20.409 Y23.320
X20.215 Y23.126
X20.189 Y23.098
X20.170 Y23.065
X20.073 Y22.870
X20.061 Y22.835
X19.965 Y22.449
X19.869 Y21.684
X19.866 Y21.649
X19.866 Y20.692
X19.869 Y20.657
X19.965 Y19.892
X20.061 Y19.506
X20.073 Y19.471
X20.170 Y19.276
X20.189 Y19.243
X20.215 Y19.215
X20.409 Y19.021
X20.442 Y18.997
X20.480 Y18.980
X20.521 Y18.971
X20.753 Y18.971
X20.794 Y18.980
X20.832 Y18.997
X20.865 Y19.021
X21.059 Y19.215
X21.085 Y19.243
X21.104 Y19.276
X21.201 Y19.471
X21.213 Y19.506
X21.309 Y19.892
X21.405 Y20.657
X21.409 Y20.692
X21.409 Y21.649
X21.405 Y21.684
X21.309 Y22.449
X21.213 Y22.835
X21.201 Y22.870
X21.104 Y23.065
X21.085 Y23.098
X21.059 Y23.126
X20.865 Y23.320
X20.832 Y23.344
X20.794 Y23.361
X20.753 Y23.370
X20.521 Y23.370
G0 Z3.000
G0  X20.625 Y22.971
G0  Z3.000
G01 F400 Z0
G01 F400 Z-0.2
G01F400X20.649 Y22.971
X20.759 Y22.862
X20.829 Y22.720
X20.917 Y22.368
X21.009 Y21.639
X21.009 Y20.702
X20.917 Y19.973
X20.830 Y19.621
X20.759 Y19.479
X20.649 Y19.370
X20.625 Y19.370
X20.516 Y19.479
X20.445 Y19.621
X20.357 Y19.973
X20.266 Y20.702
X20.266 Y21.639
X20.357 Y22.368
X20.445 Y22.720
X20.516 Y22.862
X20.625 Y22.971
G0 Z3.000
G0  X16.816 Y22.971
G0  Z3.000
G01 F400 Z0
G01 F400 Z-0.2
G01F400X16.839 Y22.971
X16.949 Y22.862
X17.020 Y22.720
X17.108 Y22.368
X17.199 Y21.639
X17.199 Y20.702
X17.108 Y19.973
X17.020 Y19.621
X16.949 Y19.479
X16.840 Y19.370
X16.816 Y19.370
X16.706 Y19.479
X16.635 Y19.621
X16.547 Y19.973
X16.456 Y20.702
X16.456 Y21.639
X16.547 Y22.368
X16.635 Y22.720
X16.706 Y22.862
X16.816 Y22.971
G0 Z3.000
G0  X59.154 Y21.414
G0  Z3.000
G01 F400 Z0
G01 F400 Z-0.2
G01F400X61.496 Y21.414
X61.496 Y15.333
X61.487 Y15.240
X61.496 Y15.145
X61.523 Y14.877
X61.526 Y14.846
X61.591 Y14.632
X61.632 Y14.496
X61.642 Y14.466
X61.814 Y14.144
X61.830 Y14.117
X61.964 Y13.953
X61.964 Y13.953
X62.061 Y13.835
X62.082 Y13.811
X62.153 Y13.753
X62.766 Y13.140
X62.766 Y10.068
X62.793 Y9.797
X62.796 Y9.766
X62.902 Y9.416
X62.912 Y9.386
X63.027 Y9.171
X63.034 Y9.095
X63.037 Y9.064
X63.129 Y8.760
X63.139 Y8.730
X63.289 Y8.451
X63.304 Y8.424
X63.505 Y8.179
X63.526 Y8.155
X63.771 Y7.954
X63.797 Y7.936
X64.076 Y7.786
X64.105 Y7.774
X64.408 Y7.682
X64.439 Y7.675
X64.754 Y7.644
X64.786 Y7.644
X65.101 Y7.675
X65.132 Y7.682
X65.435 Y7.774
X65.464 Y7.786
X65.743 Y7.936
X65.769 Y7.954
X66.014 Y8.155
X66.035 Y8.179
X66.236 Y8.424
X66.252 Y8.451
X66.401 Y8.730
X66.411 Y8.760
X66.503 Y9.064
X66.506 Y9.095
X66.513 Y9.171
X66.533 Y9.209
X66.574 Y9.082
X66.659 Y8.937
X66.771 Y8.812
X66.907 Y8.713
X67.061 Y8.644
X67.226 Y8.609
X67.394 Y8.609
X67.559 Y8.644
X67.713 Y8.713
X67.849 Y8.812
X67.962 Y8.937
X68.046 Y9.082
X68.098 Y9.243
X68.115 Y9.407
X68.115 Y10.913
X68.098 Y11.077
X68.046 Y11.238
X67.962 Y11.383
X67.849 Y11.508
X67.713 Y11.607
X67.559 Y11.676
X67.394 Y11.711
X67.226 Y11.711
X67.061 Y11.676
X66.907 Y11.607
X66.774 Y11.510
X66.774 Y13.794
X75.171 Y13.794
X75.171 Y5.461
X74.612 Y5.461
X74.560 Y5.725
X74.550 Y5.755
X74.392 Y6.138
X74.376 Y6.165
X74.146 Y6.509
X74.125 Y6.533
X73.832 Y6.826
X73.806 Y6.844
X73.462 Y7.075
X73.433 Y7.087
X73.050 Y7.246
X73.019 Y7.253
X72.613 Y7.333
X72.581 Y7.333
X72.166 Y7.333
X71.761 Y7.253
X71.730 Y7.246
X71.347 Y7.087
X71.318 Y7.075
X70.974 Y6.844
X70.948 Y6.826
X70.655 Y6.533
X70.634 Y6.509
X70.404 Y6.165
X70.388 Y6.138
X70.230 Y5.755
X70.220 Y5.725
X70.139 Y5.319
X70.136 Y5.287
X70.136 Y4.873
X70.139 Y4.841
X70.220 Y4.435
X70.230 Y4.405
X70.388 Y4.022
X70.404 Y3.995
X70.634 Y3.651
X70.656 Y3.627
X70.948 Y3.334
X70.974 Y3.316
X71.203 Y3.163
X71.319 Y3.085
X71.347 Y3.073
X71.730 Y2.914
X71.761 Y2.908
X72.167 Y2.827
X72.613 Y2.827
X73.019 Y2.908
X73.050 Y2.914
X73.433 Y3.073
X73.462 Y3.086
X73.806 Y3.316
X73.832 Y3.334
X74.125 Y3.627
X74.146 Y3.651
X74.376 Y3.995
X74.392 Y4.022
X74.550 Y4.405
X74.560 Y4.435
X74.641 Y4.841
X74.644 Y4.873
X74.644 Y5.108
X75.171 Y5.108
X75.171 Y1.028
X58.764 Y1.028
X58.764 Y6.875
X58.760 Y6.909
X58.749 Y6.944
X58.730 Y6.976
X58.706 Y7.004
X58.676 Y7.026
X58.642 Y7.041
X58.605 Y7.048
X58.174 Y7.048
X58.183 Y7.049
X58.214 Y7.056
X58.375 Y7.105
X58.404 Y7.117
X58.552 Y7.197
X58.577 Y7.215
X58.707 Y7.322
X58.728 Y7.345
X58.835 Y7.475
X58.851 Y7.502
X58.930 Y7.651
X58.940 Y7.681
X58.989 Y7.842
X58.992 Y7.873
X59.008 Y8.037
X59.012 Y8.127
X59.018 Y8.146
X59.124 Y8.495
X59.127 Y8.527
X59.154 Y8.798
X59.154 Y21.414
G0 Z3.000
G0  X43.914 Y19.587
G0  Z3.000
G01 F400 Z0
G01 F400 Z-0.2
G01F400X50.066 Y19.587
X50.066 Y16.128
X47.785 Y16.128
X47.748 Y16.121
X47.714 Y16.105
X47.684 Y16.084
X47.660 Y16.056
X47.641 Y16.024
X47.630 Y15.989
X47.626 Y15.955
X47.626 Y11.745
X47.630 Y11.711
X47.641 Y11.676
X47.660 Y11.644
X47.684 Y11.616
X47.714 Y11.595
X47.748 Y11.579
X47.785 Y11.572
X50.066 Y11.572
X50.066 Y9.607
X49.980 Y9.670
X49.808 Y9.746
X49.624 Y9.785
X49.436 Y9.785
X49.252 Y9.746
X49.080 Y9.670
X48.928 Y9.559
X48.802 Y9.419
X48.708 Y9.256
X48.649 Y9.077
X48.630 Y8.890
X48.649 Y8.703
X48.708 Y8.524
X48.802 Y8.361
X48.928 Y8.221
X49.080 Y8.110
X49.252 Y8.034
X49.436 Y7.995
X49.624 Y7.995
X49.808 Y8.034
X49.980 Y8.110
X50.132 Y8.221
X50.168 Y8.260
X50.202 Y8.146
X50.212 Y8.116
X50.384 Y7.794
X50.400 Y7.767
X50.631 Y7.485
X50.652 Y7.461
X50.934 Y7.230
X50.960 Y7.211
X51.265 Y7.048
X50.614 Y7.048
X50.578 Y7.041
X50.544 Y7.026
X50.514 Y7.004
X50.490 Y6.976
X50.471 Y6.944
X50.460 Y6.909
X50.456 Y6.875
X50.456 Y1.028
X43.524 Y1.028
X43.524 Y6.875
X43.520 Y6.909
X43.509 Y6.944
X43.490 Y6.976
X43.466 Y7.004
X43.436 Y7.026
X43.402 Y7.041
X43.366 Y7.048
X42.934 Y7.048
X42.943 Y7.049
X42.974 Y7.056
X43.135 Y7.105
X43.163 Y7.117
X43.312 Y7.197
X43.337 Y7.215
X43.467 Y7.322
X43.488 Y7.345
X43.595 Y7.475
X43.611 Y7.502
X43.690 Y7.651
X43.700 Y7.681
X43.748 Y7.842
X43.752 Y7.873
X43.768 Y8.037
X43.772 Y8.127
X43.778 Y8.146
X43.884 Y8.495
X43.887 Y8.527
X43.914 Y8.798
X43.914 Y19.587
G0 Z3.000
G0  X54.625 Y14.991
G0  Z3.000
G01 F400 Z0
G01 F400 Z-0.2
G01F400X54.586 Y14.982
X54.367 Y14.909
X54.331 Y14.893
X54.299 Y14.870
X54.152 Y14.723
X54.127 Y14.695
X54.108 Y14.662
X54.034 Y14.514
X54.022 Y14.479
X53.950 Y14.189
X53.946 Y14.151
X53.946 Y13.932
X53.950 Y13.894
X54.022 Y13.604
X54.034 Y13.569
X54.108 Y13.421
X54.127 Y13.388
X54.152 Y13.360
X54.299 Y13.213
X54.331 Y13.189
X54.367 Y13.174
X54.586 Y13.100
X54.625 Y13.092
X54.809 Y13.092
X54.848 Y13.100
X55.067 Y13.174
X55.103 Y13.189
X55.136 Y13.213
X55.211 Y13.288
X55.236 Y13.317
X55.257 Y13.353
X55.270 Y13.393
X55.274 Y13.432
X55.274 Y13.937
X55.270 Y13.976
X55.257 Y14.016
X55.236 Y14.052
X55.208 Y14.083
X55.174 Y14.108
X55.136 Y14.125
X55.095 Y14.134
X54.768 Y14.134
X54.727 Y14.125
X54.688 Y14.108
X54.655 Y14.083
X54.627 Y14.052
X54.606 Y14.016
X54.593 Y13.976
X54.588 Y13.934
X54.593 Y13.893
X54.606 Y13.853
X54.627 Y13.817
X54.655 Y13.786
X54.688 Y13.761
X54.727 Y13.744
X54.768 Y13.735
X54.873 Y13.735
X54.873 Y13.530
X54.754 Y13.491
X54.681 Y13.491
X54.539 Y13.538
X54.453 Y13.624
X54.406 Y13.718
X54.346 Y13.959
X54.346 Y14.124
X54.406 Y14.365
X54.453 Y14.459
X54.539 Y14.545
X54.681 Y14.592
X54.812 Y14.592
X54.907 Y14.545
X54.941 Y14.530
X54.982 Y14.521
X55.024 Y14.521
X55.065 Y14.530
X55.103 Y14.547
X55.137 Y14.571
X55.165 Y14.602
X55.186 Y14.639
X55.199 Y14.678
X55.203 Y14.720
X55.199 Y14.762
X55.186 Y14.802
X55.165 Y14.838
X55.137 Y14.869
X55.104 Y14.893
X54.956 Y14.967
X54.922 Y14.982
X54.881 Y14.991
X54.625 Y14.991
G0 Z3.000
G0  X39.385 Y14.991
G0  Z3.000
G01 F400 Z0
G01 F400 Z-0.2
G01F400X39.346 Y14.982
X39.127 Y14.909
X39.091 Y14.893
X39.059 Y14.870
X38.912 Y14.723
X38.887 Y14.695
X38.867 Y14.662
X38.794 Y14.514
X38.782 Y14.479
X38.710 Y14.189
X38.706 Y14.151
X38.706 Y13.932
X38.710 Y13.894
X38.782 Y13.604
X38.794 Y13.569
X38.867 Y13.421
X38.887 Y13.388
X38.912 Y13.360
X39.059 Y13.213
X39.091 Y13.189
X39.127 Y13.174
X39.346 Y13.100
X39.385 Y13.092
X39.570 Y13.092
X39.608 Y13.100
X39.827 Y13.174
X39.863 Y13.189
X39.896 Y13.213
X39.971 Y13.288
X39.996 Y13.317
X40.017 Y13.353
X40.030 Y13.393
X40.034 Y13.432
X40.034 Y13.937
X40.030 Y13.976
X40.017 Y14.016
X39.996 Y14.052
X39.968 Y14.083
X39.934 Y14.108
X39.896 Y14.125
X39.855 Y14.134
X39.528 Y14.134
X39.487 Y14.125
X39.448 Y14.108
X39.415 Y14.083
X39.387 Y14.052
X39.366 Y14.016
X39.353 Y13.976
X39.348 Y13.934
X39.353 Y13.893
X39.366 Y13.853
X39.387 Y13.817
X39.415 Y13.786
X39.448 Y13.761
X39.487 Y13.744
X39.528 Y13.735
X39.633 Y13.735
X39.633 Y13.530
X39.514 Y13.491
X39.441 Y13.491
X39.299 Y13.538
X39.213 Y13.624
X39.166 Y13.718
X39.106 Y13.959
X39.106 Y14.124
X39.166 Y14.365
X39.213 Y14.459
X39.299 Y14.545
X39.441 Y14.592
X39.572 Y14.592
X39.666 Y14.545
X39.701 Y14.530
X39.742 Y14.521
X39.784 Y14.521
X39.825 Y14.530
X39.863 Y14.547
X39.897 Y14.571
X39.925 Y14.602
X39.946 Y14.639
X39.959 Y14.678
X39.963 Y14.720
X39.959 Y14.762
X39.946 Y14.802
X39.925 Y14.838
X39.897 Y14.869
X39.864 Y14.893
X39.716 Y14.967
X39.682 Y14.982
X39.641 Y14.991
X39.385 Y14.991
G0 Z3.000
G0  X34.305 Y14.991
G0  Z3.000
G01 F400 Z0
G01 F400 Z-0.2
G01F400X34.266 Y14.982
X34.047 Y14.909
X34.011 Y14.893
X33.979 Y14.870
X33.832 Y14.723
X33.807 Y14.695
X33.788 Y14.662
X33.714 Y14.514
X33.702 Y14.479
X33.630 Y14.189
X33.626 Y14.151
X33.626 Y13.932
X33.630 Y13.894
X33.702 Y13.604
X33.714 Y13.569
X33.788 Y13.421
X33.806 Y13.388
X33.832 Y13.360
X33.979 Y13.213
X34.011 Y13.189
X34.047 Y13.174
X34.266 Y13.100
X34.305 Y13.092
X34.489 Y13.092
X34.528 Y13.100
X34.747 Y13.174
X34.783 Y13.189
X34.816 Y13.213
X34.891 Y13.288
X34.916 Y13.317
X34.937 Y13.353
X34.950 Y13.393
X34.954 Y13.432
X34.954 Y13.937
X34.950 Y13.976
X34.937 Y14.016
X34.916 Y14.052
X34.888 Y14.083
X34.854 Y14.108
X34.816 Y14.125
X34.775 Y14.134
X34.448 Y14.134
X34.407 Y14.125
X34.368 Y14.108
X34.335 Y14.083
X34.306 Y14.052
X34.286 Y14.016
X34.273 Y13.976
X34.268 Y13.934
X34.273 Y13.893
X34.286 Y13.853
X34.306 Y13.817
X34.335 Y13.786
X34.368 Y13.761
X34.407 Y13.744
X34.448 Y13.735
X34.553 Y13.735
X34.553 Y13.530
X34.434 Y13.491
X34.361 Y13.491
X34.219 Y13.538
X34.133 Y13.624
X34.086 Y13.718
X34.026 Y13.959
X34.026 Y14.124
X34.086 Y14.365
X34.133 Y14.459
X34.219 Y14.545
X34.361 Y14.592
X34.492 Y14.592
X34.587 Y14.545
X34.621 Y14.530
X34.662 Y14.521
X34.704 Y14.521
X34.745 Y14.530
X34.783 Y14.547
X34.817 Y14.571
X34.845 Y14.602
X34.866 Y14.639
X34.879 Y14.678
X34.883 Y14.720
X34.879 Y14.762
X34.866 Y14.802
X34.845 Y14.838
X34.817 Y14.869
X34.784 Y14.893
X34.636 Y14.967
X34.602 Y14.982
X34.561 Y14.991
X34.305 Y14.991
G0 Z3.000
G0  X49.545 Y14.991
G0  Z3.000
G01 F400 Z0
G01 F400 Z-0.2
G01F400X49.506 Y14.982
X49.287 Y14.909
X49.251 Y14.893
X49.218 Y14.870
X49.072 Y14.723
X49.047 Y14.695
X49.028 Y14.662
X48.954 Y14.514
X48.942 Y14.479
X48.870 Y14.189
X48.866 Y14.151
X48.866 Y13.932
X48.870 Y13.894
X48.942 Y13.604
X48.954 Y13.569
X49.028 Y13.421
X49.047 Y13.388
X49.072 Y13.360
X49.218 Y13.213
X49.251 Y13.189
X49.287 Y13.174
X49.506 Y13.100
X49.545 Y13.092
X49.730 Y13.092
X49.768 Y13.100
X49.987 Y13.174
X50.023 Y13.189
X50.056 Y13.213
X50.131 Y13.288
X50.156 Y13.317
X50.177 Y13.353
X50.190 Y13.393
X50.194 Y13.432
X50.194 Y13.937
X50.190 Y13.976
X50.177 Y14.016
X50.156 Y14.052
X50.128 Y14.083
X50.094 Y14.108
X50.056 Y14.125
X50.015 Y14.134
X49.688 Y14.134
X49.647 Y14.125
X49.608 Y14.108
X49.575 Y14.083
X49.547 Y14.052
X49.526 Y14.016
X49.513 Y13.976
X49.508 Y13.934
X49.513 Y13.893
X49.526 Y13.853
X49.547 Y13.817
X49.575 Y13.786
X49.608 Y13.761
X49.647 Y13.744
X49.688 Y13.735
X49.793 Y13.735
X49.793 Y13.530
X49.674 Y13.491
X49.601 Y13.491
X49.459 Y13.538
X49.373 Y13.624
X49.326 Y13.718
X49.266 Y13.959
X49.266 Y14.124
X49.326 Y14.365
X49.373 Y14.459
X49.459 Y14.545
X49.601 Y14.592
X49.732 Y14.592
X49.827 Y14.545
X49.861 Y14.530
X49.902 Y14.521
X49.944 Y14.521
X49.985 Y14.530
X50.023 Y14.547
X50.057 Y14.571
X50.085 Y14.602
X50.106 Y14.639
X50.119 Y14.678
X50.123 Y14.720
X50.119 Y14.762
X50.106 Y14.802
X50.085 Y14.838
X50.057 Y14.869
X50.024 Y14.893
X49.876 Y14.967
X49.842 Y14.982
X49.801 Y14.991
X49.545 Y14.991
G0 Z3.000
G0  X21.605 Y14.991
G0  Z3.000
G01 F400 Z0
G01 F400 Z-0.2
G01F400X21.566 Y14.982
X21.347 Y14.909
X21.311 Y14.893
X21.279 Y14.870
X21.132 Y14.723
X21.107 Y14.695
X21.088 Y14.662
X21.014 Y14.514
X21.002 Y14.479
X20.930 Y14.189
X20.926 Y14.151
X20.926 Y13.932
X20.930 Y13.894
X21.002 Y13.604
X21.014 Y13.569
X21.088 Y13.421
X21.107 Y13.388
X21.132 Y13.360
X21.279 Y13.213
X21.311 Y13.189
X21.347 Y13.174
X21.566 Y13.100
X21.605 Y13.092
X21.790 Y13.092
X21.828 Y13.100
X22.047 Y13.174
X22.083 Y13.189
X22.116 Y13.213
X22.191 Y13.288
X22.216 Y13.317
X22.237 Y13.353
X22.250 Y13.393
X22.254 Y13.432
X22.254 Y13.937
X22.250 Y13.976
X22.237 Y14.016
X22.216 Y14.052
X22.188 Y14.083
X22.154 Y14.108
X22.116 Y14.125
X22.075 Y14.134
X21.748 Y14.134
X21.707 Y14.125
X21.668 Y14.108
X21.635 Y14.083
X21.607 Y14.052
X21.586 Y14.016
X21.573 Y13.976
X21.568 Y13.934
X21.573 Y13.893
X21.586 Y13.853
X21.607 Y13.817
X21.635 Y13.786
X21.668 Y13.761
X21.707 Y13.744
X21.748 Y13.735
X21.853 Y13.735
X21.853 Y13.530
X21.734 Y13.491
X21.661 Y13.491
X21.519 Y13.538
X21.433 Y13.624
X21.386 Y13.718
X21.326 Y13.959
X21.326 Y14.124
X21.386 Y14.365
X21.433 Y14.459
X21.519 Y14.545
X21.661 Y14.592
X21.792 Y14.592
X21.887 Y14.545
X21.921 Y14.530
X21.962 Y14.521
X22.004 Y14.521
X22.045 Y14.530
X22.083 Y14.547
X22.117 Y14.571
X22.145 Y14.602
X22.166 Y14.639
X22.179 Y14.678
X22.183 Y14.720
X22.179 Y14.762
X22.166 Y14.802
X22.145 Y14.838
X22.117 Y14.869
X22.084 Y14.893
X21.936 Y14.967
X21.902 Y14.982
X21.861 Y14.991
X21.605 Y14.991
G0 Z3.000
G0  X7.635 Y14.991
G0  Z3.000
G01 F400 Z0
G01 F400 Z-0.2
G01F400X7.596 Y14.982
X7.377 Y14.909
X7.341 Y14.893
X7.309 Y14.870
X7.162 Y14.723
X7.137 Y14.695
X7.118 Y14.662
X7.044 Y14.514
X7.032 Y14.479
X6.960 Y14.189
X6.956 Y14.151
X6.956 Y13.932
X6.960 Y13.894
X7.032 Y13.604
X7.044 Y13.569
X7.118 Y13.421
X7.137 Y13.388
X7.162 Y13.360
X7.309 Y13.213
X7.341 Y13.189
X7.377 Y13.174
X7.596 Y13.100
X7.635 Y13.092
X7.820 Y13.092
X7.858 Y13.100
X8.077 Y13.174
X8.113 Y13.189
X8.146 Y13.213
X8.221 Y13.288
X8.246 Y13.317
X8.267 Y13.353
X8.280 Y13.393
X8.284 Y13.432
X8.284 Y13.937
X8.280 Y13.976
X8.267 Y14.016
X8.246 Y14.052
X8.218 Y14.083
X8.184 Y14.108
X8.146 Y14.125
X8.105 Y14.134
X7.778 Y14.134
X7.737 Y14.125
X7.698 Y14.108
X7.665 Y14.083
X7.637 Y14.052
X7.616 Y14.016
X7.603 Y13.976
X7.598 Y13.934
X7.603 Y13.893
X7.616 Y13.853
X7.637 Y13.817
X7.665 Y13.786
X7.698 Y13.761
X7.737 Y13.744
X7.778 Y13.735
X7.883 Y13.735
X7.883 Y13.530
X7.764 Y13.491
X7.691 Y13.491
X7.549 Y13.538
X7.463 Y13.624
X7.416 Y13.718
X7.356 Y13.959
X7.356 Y14.124
X7.416 Y14.365
X7.463 Y14.459
X7.549 Y14.545
X7.691 Y14.592
X7.822 Y14.592
X7.917 Y14.545
X7.951 Y14.530
X7.992 Y14.521
X8.034 Y14.521
X8.075 Y14.530
X8.113 Y14.547
X8.147 Y14.571
X8.175 Y14.602
X8.196 Y14.639
X8.209 Y14.678
X8.213 Y14.720
X8.209 Y14.762
X8.196 Y14.802
X8.175 Y14.838
X8.147 Y14.869
X8.114 Y14.893
X7.966 Y14.967
X7.932 Y14.982
X7.891 Y14.991
X7.635 Y14.991
G0 Z3.000
G0  X54.074 Y11.572
G0  Z3.000
G01 F400 Z0
G01 F400 Z-0.2
G01F400X55.146 Y11.572
X55.146 Y9.607
X55.060 Y9.670
X54.888 Y9.746
X54.704 Y9.785
X54.516 Y9.785
X54.332 Y9.746
X54.160 Y9.670
X54.074 Y9.607
X54.074 Y11.572
G0 Z3.000
G0  X38.834 Y11.572
G0  Z3.000
G01 F400 Z0
G01 F400 Z-0.2
G01F400X39.906 Y11.572
X39.906 Y9.607
X39.820 Y9.670
X39.648 Y9.746
X39.464 Y9.785
X39.276 Y9.785
X39.092 Y9.746
X38.920 Y9.670
X38.834 Y9.607
X38.834 Y11.572
G0 Z3.000
G0  X38.733 Y8.260
G0  Z3.000
G01 F400 Z0
G01 F400 Z-0.2
G01F400X38.768 Y8.221
X38.920 Y8.110
X39.092 Y8.034
X39.276 Y7.995
X39.464 Y7.995
X39.648 Y8.034
X39.820 Y8.110
X39.972 Y8.221
X40.008 Y8.260
X40.042 Y8.145
X40.052 Y8.119
X40.052 Y8.037
X40.068 Y7.873
X40.072 Y7.842
X40.120 Y7.681
X40.130 Y7.651
X40.209 Y7.502
X40.225 Y7.475
X40.332 Y7.345
X40.353 Y7.322
X40.483 Y7.215
X40.508 Y7.197
X40.657 Y7.117
X40.685 Y7.105
X40.846 Y7.056
X40.877 Y7.049
X40.886 Y7.048
X37.635 Y7.048
X37.940 Y7.211
X37.965 Y7.230
X38.248 Y7.461
X38.269 Y7.485
X38.500 Y7.767
X38.516 Y7.794
X38.688 Y8.116
X38.698 Y8.146
X38.733 Y8.260
G0 Z3.000
G0  X53.973 Y8.260
G0  Z3.000
G01 F400 Z0
G01 F400 Z-0.2
G01F400X54.008 Y8.221
X54.160 Y8.110
X54.332 Y8.034
X54.516 Y7.995
X54.704 Y7.995
X54.888 Y8.034
X55.060 Y8.110
X55.212 Y8.221
X55.248 Y8.260
X55.282 Y8.145
X55.292 Y8.119
X55.292 Y8.037
X55.308 Y7.873
X55.312 Y7.842
X55.360 Y7.681
X55.370 Y7.651
X55.449 Y7.502
X55.465 Y7.475
X55.572 Y7.345
X55.593 Y7.322
X55.723 Y7.215
X55.748 Y7.197
X55.897 Y7.117
X55.925 Y7.105
X56.086 Y7.056
X56.117 Y7.049
X56.126 Y7.048
X52.875 Y7.048
X53.180 Y7.211
X53.206 Y7.230
X53.488 Y7.461
X53.509 Y7.485
X53.740 Y7.767
X53.756 Y7.794
X53.928 Y8.116
X53.938 Y8.146
X53.973 Y8.260
G0 Z3.000
G0  X72.204 Y6.981
G0  Z3.000
G01 F400 Z0
G01 F400 Z-0.2
G01F400X72.577 Y6.981
X72.944 Y6.908
X73.289 Y6.764
X73.601 Y6.556
X73.866 Y6.291
X74.074 Y5.980
X74.217 Y5.634
X74.290 Y5.267
X74.290 Y4.893
X74.217 Y4.526
X74.074 Y4.180
X73.866 Y3.869
X73.601 Y3.604
X73.289 Y3.396
X72.944 Y3.252
X72.577 Y3.179
X72.204 Y3.179
X71.837 Y3.252
X71.491 Y3.396
X71.179 Y3.604
X70.914 Y3.869
X70.706 Y4.180
X70.591 Y4.459
X70.563 Y4.526
X70.490 Y4.893
X70.490 Y5.267
X70.563 Y5.635
X70.706 Y5.980
X70.914 Y6.292
X71.179 Y6.556
X71.491 Y6.764
X71.837 Y6.908
X72.204 Y6.981
G0 Z3.000
G0  X56.446 Y5.652
G0  Z3.000
G01 F400 Z0
G01 F400 Z-0.2
G01F400X56.405 Y5.643
X56.367 Y5.626
X56.333 Y5.602
X56.305 Y5.571
X56.284 Y5.534
X56.271 Y5.495
X56.267 Y5.453
X56.271 Y5.415
X56.772 Y2.410
X56.784 Y2.371
X56.805 Y2.335
X56.833 Y2.304
X56.867 Y2.279
X56.905 Y2.262
X56.946 Y2.254
X56.988 Y2.254
X57.029 Y2.262
X57.067 Y2.279
X57.101 Y2.304
X57.129 Y2.335
X57.150 Y2.371
X57.163 Y2.410
X57.663 Y5.415
X57.667 Y5.453
X57.663 Y5.495
X57.650 Y5.534
X57.629 Y5.571
X57.601 Y5.602
X57.567 Y5.626
X57.529 Y5.643
X57.488 Y5.652
X57.446 Y5.652
X57.405 Y5.643
X57.367 Y5.626
X57.333 Y5.602
X57.305 Y5.571
X57.284 Y5.534
X57.272 Y5.496
X56.967 Y3.668
X56.663 Y5.496
X56.650 Y5.534
X56.629 Y5.571
X56.601 Y5.602
X56.567 Y5.626
X56.529 Y5.643
X56.488 Y5.652
X56.446 Y5.652
G0 Z3.000
G0  X54.089 Y5.652
G0  Z3.000
G01 F400 Z0
G01 F400 Z-0.2
G01F400X54.048 Y5.643
X54.010 Y5.626
X53.976 Y5.602
X53.948 Y5.571
X53.927 Y5.534
X53.914 Y5.495
X53.910 Y5.457
X53.838 Y4.023
X53.843 Y3.983
X53.856 Y3.943
X53.877 Y3.907
X53.905 Y3.876
X53.938 Y3.851
X53.977 Y3.834
X54.018 Y3.825
X54.059 Y3.825
X54.101 Y3.834
X54.139 Y3.851
X54.173 Y3.876
X54.201 Y3.907
X54.220 Y3.940
X54.274 Y4.049
X54.336 Y4.111
X54.527 Y4.111
X54.589 Y4.049
X54.636 Y3.955
X54.696 Y3.714
X54.696 Y3.049
X54.636 Y2.808
X54.589 Y2.714
X54.527 Y2.652
X54.336 Y2.652
X54.274 Y2.714
X54.220 Y2.823
X54.201 Y2.856
X54.173 Y2.887
X54.139 Y2.912
X54.101 Y2.929
X54.059 Y2.938
X54.018 Y2.938
X53.977 Y2.929
X53.938 Y2.912
X53.905 Y2.887
X53.877 Y2.856
X53.856 Y2.820
X53.843 Y2.780
X53.838 Y2.739
X53.843 Y2.697
X53.855 Y2.659
X53.929 Y2.511
X53.948 Y2.478
X53.973 Y2.450
X54.120 Y2.303
X54.153 Y2.279
X54.191 Y2.262
X54.232 Y2.254
X54.631 Y2.254
X54.672 Y2.262
X54.710 Y2.279
X54.743 Y2.303
X54.890 Y2.450
X54.915 Y2.478
X54.934 Y2.511
X55.008 Y2.659
X55.019 Y2.694
X55.092 Y2.984
X55.096 Y3.022
X55.096 Y3.741
X55.092 Y3.779
X55.019 Y4.069
X55.008 Y4.104
X54.934 Y4.252
X54.915 Y4.285
X54.890 Y4.313
X54.743 Y4.460
X54.710 Y4.483
X54.672 Y4.501
X54.631 Y4.509
X54.263 Y4.509
X54.300 Y5.254
X54.845 Y5.254
X54.886 Y5.262
X54.924 Y5.279
X54.958 Y5.304
X54.986 Y5.335
X55.007 Y5.371
X55.020 Y5.411
X55.025 Y5.453
X55.020 Y5.495
X55.007 Y5.534
X54.986 Y5.571
X54.958 Y5.602
X54.924 Y5.626
X54.886 Y5.643
X54.845 Y5.652
X54.089 Y5.652
G0 Z3.000
G0  X38.849 Y5.652
G0  Z3.000
G01 F400 Z0
G01 F400 Z-0.2
G01F400X38.808 Y5.643
X38.770 Y5.626
X38.736 Y5.602
X38.708 Y5.571
X38.687 Y5.534
X38.674 Y5.495
X38.670 Y5.457
X38.598 Y4.023
X38.603 Y3.983
X38.616 Y3.943
X38.637 Y3.907
X38.665 Y3.876
X38.698 Y3.851
X38.737 Y3.834
X38.778 Y3.825
X38.820 Y3.825
X38.861 Y3.834
X38.899 Y3.851
X38.933 Y3.876
X38.961 Y3.907
X38.980 Y3.940
X39.034 Y4.049
X39.096 Y4.111
X39.287 Y4.111
X39.349 Y4.049
X39.396 Y3.955
X39.456 Y3.714
X39.456 Y3.049
X39.396 Y2.808
X39.349 Y2.714
X39.287 Y2.652
X39.096 Y2.652
X39.034 Y2.714
X38.980 Y2.823
X38.961 Y2.856
X38.933 Y2.887
X38.899 Y2.912
X38.861 Y2.929
X38.820 Y2.938
X38.778 Y2.938
X38.737 Y2.929
X38.698 Y2.912
X38.665 Y2.887
X38.637 Y2.856
X38.616 Y2.820
X38.603 Y2.780
X38.598 Y2.739
X38.603 Y2.697
X38.615 Y2.659
X38.689 Y2.511
X38.708 Y2.478
X38.733 Y2.450
X38.880 Y2.303
X38.913 Y2.279
X38.951 Y2.262
X38.992 Y2.254
X39.391 Y2.254
X39.432 Y2.262
X39.470 Y2.279
X39.503 Y2.303
X39.650 Y2.450
X39.675 Y2.478
X39.694 Y2.511
X39.768 Y2.659
X39.779 Y2.694
X39.852 Y2.984
X39.856 Y3.022
X39.856 Y3.741
X39.852 Y3.779
X39.779 Y4.069
X39.768 Y4.104
X39.694 Y4.252
X39.675 Y4.285
X39.650 Y4.313
X39.503 Y4.460
X39.470 Y4.483
X39.432 Y4.501
X39.391 Y4.509
X39.023 Y4.509
X39.060 Y5.254
X39.605 Y5.254
X39.646 Y5.262
X39.684 Y5.279
X39.718 Y5.304
X39.746 Y5.335
X39.767 Y5.371
X39.780 Y5.411
X39.785 Y5.453
X39.780 Y5.495
X39.767 Y5.534
X39.746 Y5.571
X39.718 Y5.602
X39.684 Y5.626
X39.646 Y5.643
X39.605 Y5.652
X38.849 Y5.652
G0 Z3.000
G0  X36.706 Y5.652
G0  Z3.000
G01 F400 Z0
G01 F400 Z-0.2
G01F400X36.665 Y5.643
X36.627 Y5.626
X36.593 Y5.602
X36.565 Y5.571
X36.544 Y5.534
X36.531 Y5.495
X36.527 Y5.457
X36.456 Y4.023
X36.460 Y3.983
X36.473 Y3.943
X36.494 Y3.907
X36.522 Y3.876
X36.556 Y3.851
X36.594 Y3.834
X36.635 Y3.825
X36.677 Y3.825
X36.718 Y3.834
X36.756 Y3.851
X36.790 Y3.876
X36.818 Y3.907
X36.837 Y3.940
X36.892 Y4.049
X36.953 Y4.111
X37.144 Y4.111
X37.206 Y4.049
X37.253 Y3.955
X37.313 Y3.714
X37.313 Y3.049
X37.253 Y2.808
X37.206 Y2.714
X37.144 Y2.652
X36.953 Y2.652
X36.892 Y2.714
X36.837 Y2.823
X36.818 Y2.856
X36.790 Y2.887
X36.756 Y2.912
X36.718 Y2.929
X36.677 Y2.938
X36.635 Y2.938
X36.594 Y2.929
X36.556 Y2.912
X36.522 Y2.887
X36.494 Y2.856
X36.473 Y2.820
X36.460 Y2.780
X36.455 Y2.739
X36.460 Y2.697
X36.472 Y2.659
X36.546 Y2.511
X36.565 Y2.478
X36.590 Y2.450
X36.737 Y2.303
X36.770 Y2.279
X36.808 Y2.262
X36.849 Y2.254
X37.248 Y2.254
X37.289 Y2.262
X37.327 Y2.279
X37.360 Y2.303
X37.507 Y2.450
X37.532 Y2.478
X37.551 Y2.511
X37.625 Y2.659
X37.636 Y2.694
X37.709 Y2.984
X37.713 Y3.022
X37.713 Y3.741
X37.709 Y3.779
X37.636 Y4.069
X37.625 Y4.104
X37.551 Y4.252
X37.532 Y4.285
X37.507 Y4.313
X37.360 Y4.460
X37.327 Y4.483
X37.289 Y4.501
X37.248 Y4.509
X36.880 Y4.509
X36.917 Y5.254
X37.462 Y5.254
X37.503 Y5.262
X37.542 Y5.279
X37.575 Y5.304
X37.604 Y5.335
X37.624 Y5.371
X37.637 Y5.411
X37.642 Y5.453
X37.637 Y5.495
X37.624 Y5.534
X37.604 Y5.571
X37.575 Y5.602
X37.542 Y5.626
X37.503 Y5.643
X37.462 Y5.652
X36.706 Y5.652
G0 Z3.000
G0  X51.946 Y5.652
G0  Z3.000
G01 F400 Z0
G01 F400 Z-0.2
G01F400X51.905 Y5.643
X51.867 Y5.626
X51.833 Y5.602
X51.805 Y5.571
X51.784 Y5.534
X51.771 Y5.495
X51.767 Y5.457
X51.696 Y4.023
X51.700 Y3.983
X51.713 Y3.943
X51.734 Y3.907
X51.762 Y3.876
X51.796 Y3.851
X51.834 Y3.834
X51.875 Y3.825
X51.917 Y3.825
X51.958 Y3.834
X51.996 Y3.851
X52.030 Y3.876
X52.058 Y3.907
X52.077 Y3.940
X52.132 Y4.049
X52.193 Y4.111
X52.384 Y4.111
X52.446 Y4.049
X52.493 Y3.955
X52.553 Y3.714
X52.553 Y3.049
X52.493 Y2.808
X52.446 Y2.714
X52.384 Y2.652
X52.194 Y2.652
X52.132 Y2.714
X52.077 Y2.823
X52.058 Y2.856
X52.030 Y2.887
X51.996 Y2.912
X51.958 Y2.929
X51.917 Y2.938
X51.875 Y2.938
X51.834 Y2.929
X51.796 Y2.912
X51.762 Y2.887
X51.734 Y2.856
X51.713 Y2.820
X51.700 Y2.780
X51.695 Y2.739
X51.700 Y2.697
X51.712 Y2.659
X51.786 Y2.511
X51.805 Y2.478
X51.831 Y2.450
X51.977 Y2.303
X52.010 Y2.279
X52.048 Y2.262
X52.089 Y2.254
X52.488 Y2.254
X52.529 Y2.262
X52.567 Y2.279
X52.600 Y2.303
X52.747 Y2.450
X52.772 Y2.478
X52.791 Y2.511
X52.865 Y2.659
X52.876 Y2.694
X52.949 Y2.984
X52.953 Y3.022
X52.953 Y3.741
X52.949 Y3.779
X52.876 Y4.069
X52.865 Y4.104
X52.791 Y4.252
X52.772 Y4.285
X52.747 Y4.313
X52.600 Y4.460
X52.567 Y4.483
X52.529 Y4.501
X52.488 Y4.509
X52.120 Y4.509
X52.157 Y5.254
X52.702 Y5.254
X52.743 Y5.262
X52.782 Y5.279
X52.815 Y5.304
X52.844 Y5.335
X52.864 Y5.371
X52.877 Y5.411
X52.882 Y5.453
X52.877 Y5.495
X52.864 Y5.534
X52.844 Y5.571
X52.815 Y5.602
X52.782 Y5.626
X52.743 Y5.643
X52.702 Y5.652
X51.946 Y5.652
G0 Z3.000
G0  X41.206 Y5.652
G0  Z3.000
G01 F400 Z0
G01 F400 Z-0.2
G01F400X41.165 Y5.643
X41.127 Y5.626
X41.093 Y5.602
X41.065 Y5.571
X41.044 Y5.534
X41.031 Y5.495
X41.027 Y5.453
X41.031 Y5.415
X41.532 Y2.410
X41.544 Y2.371
X41.565 Y2.335
X41.593 Y2.304
X41.627 Y2.279
X41.665 Y2.262
X41.706 Y2.254
X41.748 Y2.254
X41.789 Y2.262
X41.827 Y2.279
X41.861 Y2.304
X41.889 Y2.335
X41.910 Y2.371
X41.923 Y2.410
X42.423 Y5.415
X42.427 Y5.453
X42.423 Y5.495
X42.410 Y5.534
X42.389 Y5.571
X42.361 Y5.602
X42.327 Y5.626
X42.289 Y5.643
X42.248 Y5.652
X42.206 Y5.652
X42.165 Y5.643
X42.127 Y5.626
X42.093 Y5.602
X42.065 Y5.571
X42.044 Y5.534
X42.032 Y5.496
X41.727 Y3.668
X41.423 Y5.496
X41.410 Y5.534
X41.389 Y5.571
X41.361 Y5.602
X41.327 Y5.626
X41.289 Y5.643
X41.248 Y5.652
X41.206 Y5.652
G0 Z3.000
G0  X20.196 Y4.382
G0  Z3.000
G01 F400 Z0
G01 F400 Z-0.2
G01F400X20.155 Y4.373
X20.117 Y4.356
X20.083 Y4.332
X20.055 Y4.301
X20.034 Y4.264
X20.021 Y4.224
X20.017 Y4.187
X19.946 Y2.753
X19.950 Y2.713
X19.963 Y2.673
X19.984 Y2.637
X20.012 Y2.606
X20.046 Y2.581
X20.084 Y2.564
X20.125 Y2.555
X20.167 Y2.555
X20.208 Y2.564
X20.246 Y2.581
X20.280 Y2.606
X20.308 Y2.637
X20.327 Y2.670
X20.401 Y2.817
X20.408 Y2.841
X20.634 Y2.841
X20.696 Y2.779
X20.743 Y2.685
X20.803 Y2.444
X20.803 Y1.779
X20.743 Y1.538
X20.696 Y1.444
X20.634 Y1.382
X20.443 Y1.382
X20.382 Y1.444
X20.327 Y1.553
X20.308 Y1.586
X20.280 Y1.617
X20.246 Y1.642
X20.208 Y1.659
X20.167 Y1.668
X20.125 Y1.668
X20.084 Y1.659
X20.046 Y1.642
X20.012 Y1.617
X19.984 Y1.586
X19.963 Y1.550
X19.950 Y1.510
X19.945 Y1.469
X19.950 Y1.427
X19.962 Y1.389
X20.036 Y1.241
X20.055 Y1.208
X20.081 Y1.180
X20.227 Y1.033
X20.260 Y1.009
X20.298 Y0.992
X20.339 Y0.984
X20.738 Y0.984
X20.779 Y0.992
X20.817 Y1.009
X20.850 Y1.033
X20.997 Y1.180
X21.022 Y1.208
X21.041 Y1.241
X21.115 Y1.389
X21.126 Y1.424
X21.199 Y1.714
X21.203 Y1.752
X21.203 Y2.471
X21.199 Y2.509
X21.126 Y2.799
X21.115 Y2.834
X21.041 Y2.982
X21.022 Y3.015
X20.997 Y3.043
X20.850 Y3.190
X20.817 Y3.213
X20.779 Y3.231
X20.738 Y3.239
X20.370 Y3.239
X20.407 Y3.984
X20.952 Y3.984
X20.993 Y3.992
X21.032 Y4.009
X21.065 Y4.034
X21.094 Y4.065
X21.114 Y4.101
X21.127 Y4.141
X21.132 Y4.183
X21.127 Y4.224
X21.114 Y4.264
X21.094 Y4.301
X21.065 Y4.332
X21.032 Y4.356
X20.993 Y4.373
X20.952 Y4.382
X20.196 Y4.382
G0 Z3.000
G0  X24.696 Y4.382
G0  Z3.000
G01 F400 Z0
G01 F400 Z-0.2
G01F400X24.655 Y4.373
X24.617 Y4.356
X24.583 Y4.332
X24.555 Y4.301
X24.534 Y4.264
X24.521 Y4.224
X24.517 Y4.183
X24.521 Y4.145
X25.022 Y1.140
X25.034 Y1.101
X25.055 Y1.065
X25.083 Y1.034
X25.117 Y1.009
X25.155 Y0.992
X25.196 Y0.984
X25.238 Y0.984
X25.279 Y0.992
X25.317 Y1.009
X25.351 Y1.034
X25.379 Y1.065
X25.400 Y1.101
X25.413 Y1.140
X25.913 Y4.145
X25.917 Y4.183
X25.913 Y4.224
X25.900 Y4.264
X25.879 Y4.301
X25.851 Y4.332
X25.817 Y4.356
X25.779 Y4.373
X25.738 Y4.382
X25.696 Y4.382
X25.655 Y4.373
X25.617 Y4.356
X25.583 Y4.332
X25.555 Y4.301
X25.534 Y4.264
X25.522 Y4.226
X25.217 Y2.398
X24.913 Y4.226
X24.900 Y4.264
X24.879 Y4.301
X24.851 Y4.332
X24.817 Y4.356
X24.779 Y4.373
X24.738 Y4.382
X24.696 Y4.382
G0 Z3.000
G0  X22.339 Y4.382
G0  Z3.000
G01 F400 Z0
G01 F400 Z-0.2
G01F400X22.298 Y4.373
X22.260 Y4.356
X22.226 Y4.332
X22.198 Y4.301
X22.177 Y4.264
X22.164 Y4.224
X22.160 Y4.187
X22.088 Y2.753
X22.093 Y2.713
X22.106 Y2.673
X22.127 Y2.637
X22.155 Y2.606
X22.188 Y2.581
X22.227 Y2.564
X22.268 Y2.555
X22.309 Y2.555
X22.351 Y2.564
X22.389 Y2.581
X22.423 Y2.606
X22.451 Y2.637
X22.470 Y2.670
X22.543 Y2.817
X22.551 Y2.841
X22.777 Y2.841
X22.839 Y2.779
X22.886 Y2.685
X22.946 Y2.444
X22.946 Y1.779
X22.886 Y1.538
X22.838 Y1.444
X22.777 Y1.382
X22.586 Y1.382
X22.524 Y1.444
X22.470 Y1.553
X22.451 Y1.586
X22.423 Y1.617
X22.389 Y1.642
X22.351 Y1.659
X22.309 Y1.668
X22.268 Y1.668
X22.227 Y1.659
X22.188 Y1.642
X22.155 Y1.617
X22.127 Y1.586
X22.106 Y1.550
X22.093 Y1.510
X22.088 Y1.469
X22.093 Y1.427
X22.105 Y1.389
X22.179 Y1.241
X22.198 Y1.208
X22.223 Y1.180
X22.370 Y1.033
X22.403 Y1.009
X22.441 Y0.992
X22.482 Y0.984
X22.881 Y0.984
X22.922 Y0.992
X22.960 Y1.009
X22.993 Y1.033
X23.140 Y1.180
X23.165 Y1.208
X23.184 Y1.241
X23.258 Y1.389
X23.269 Y1.424
X23.342 Y1.714
X23.346 Y1.752
X23.346 Y2.471
X23.342 Y2.509
X23.269 Y2.799
X23.258 Y2.835
X23.184 Y2.982
X23.165 Y3.015
X23.140 Y3.043
X22.993 Y3.190
X22.960 Y3.213
X22.922 Y3.231
X22.881 Y3.239
X22.513 Y3.239
X22.550 Y3.984
X23.095 Y3.984
X23.136 Y3.992
X23.174 Y4.009
X23.208 Y4.034
X23.236 Y4.065
X23.257 Y4.101
X23.270 Y4.141
X23.275 Y4.183
X23.270 Y4.224
X23.257 Y4.264
X23.236 Y4.301
X23.208 Y4.332
X23.174 Y4.356
X23.136 Y4.373
X23.095 Y4.382
X22.339 Y4.382
G0 Z3.000
G0  X8.798 Y4.382
G0  Z3.000
G01 F400 Z0
G01 F400 Z-0.2
G01F400X8.757 Y4.373
X8.718 Y4.356
X8.685 Y4.332
X8.657 Y4.301
X8.636 Y4.264
X8.623 Y4.224
X8.618 Y4.183
X8.623 Y4.141
X8.636 Y4.101
X8.657 Y4.065
X8.685 Y4.034
X8.718 Y4.009
X8.757 Y3.992
X8.798 Y3.984
X9.442 Y3.984
X9.063 Y3.119
X9.051 Y3.082
X9.047 Y3.040
X9.051 Y2.998
X9.064 Y2.959
X9.085 Y2.922
X9.113 Y2.891
X9.147 Y2.867
X9.185 Y2.849
X9.226 Y2.841
X9.252 Y2.841
X9.453 Y2.754
X9.487 Y2.685
X9.547 Y2.444
X9.547 Y1.779
X9.487 Y1.538
X9.440 Y1.444
X9.378 Y1.382
X9.116 Y1.382
X9.054 Y1.444
X9.000 Y1.553
X8.981 Y1.586
X8.953 Y1.617
X8.919 Y1.642
X8.880 Y1.659
X8.840 Y1.668
X8.798 Y1.668
X8.757 Y1.659
X8.718 Y1.642
X8.685 Y1.617
X8.657 Y1.586
X8.636 Y1.550
X8.623 Y1.510
X8.618 Y1.469
X8.623 Y1.427
X8.635 Y1.389
X8.709 Y1.241
X8.728 Y1.208
X8.753 Y1.180
X8.900 Y1.033
X8.933 Y1.009
X8.971 Y0.992
X9.012 Y0.984
X9.482 Y0.984
X9.523 Y0.992
X9.562 Y1.009
X9.595 Y1.033
X9.741 Y1.180
X9.766 Y1.208
X9.785 Y1.241
X9.859 Y1.389
X9.870 Y1.424
X9.943 Y1.714
X9.947 Y1.752
X9.947 Y2.471
X9.943 Y2.509
X9.870 Y2.799
X9.859 Y2.835
X9.785 Y2.982
X9.766 Y3.015
X9.741 Y3.043
X9.594 Y3.190
X9.562 Y3.213
X9.545 Y3.221
X9.931 Y4.104
X9.943 Y4.141
X9.947 Y4.183
X9.943 Y4.224
